!!!!SEGMENT: pl-cz--iii-200--partytura_elsner-jozef--de-profundis-partytura-partytura.krn
!!!cenid: 18xx:57b
!!!COM: Elsner, Józef
!!!COM-rismID: pe30000957
!!!CDT: 1769/06/01-1854/04/18
!!!CNT: Polish
!!!GTL: De profundis
!!!OTL: [partytura]
!!!PDT: 1827
!!!AGN: Sacred
!!!SMS-siglum: PL-CZ
!!!SMS-shelfmark: III-200
!!!SMS-shelfwork: G
!!!NIFC-rismSourceID: 300000239
!!!NIFC-rismChildID: 300000239
!!!NIFC-islandoraID: pl-cz:36433
!!!URL-pdf-islandora: https://repozytorium.nifc.pl/islandora/object/pl-cz%3A36433/datastream/PDF/view
!!!URL-scan:
!!!ONB-nifc:
!!!AIN: 1 cor 5 empty 2 tenor 1 timpa
!!!key:
**kern	**dynam	**kern	**text	**dynam	**kern	**text	**dynam	**kern	**text	**dynam	**kern	**dynam	**kern	**dynam	**kern	**dynam	**kern	**dynam	**kern	**dynam
*part9	*part9	*part8	*part8	*part8	*part7	*part7	*part7	*part6	*part6	*part6	*part5	*part5	*part4	*part4	*part3	*part3	*group2	*group2	*group1	*group1
*staff9	*	*staff8	*staff8	*	*staff7	*staff7	*	*staff6	*staff6	*	*staff5	*	*staff4	*	*staff3	*	*staff2	*	*staff1	*
*	*	*	*	*	*	*	*	*	*	*	*	*	*	*	*	*	*I""fagotti	*	*I""fagotti	*
*Iempty	*	*Iempty	*	*	*Itenor	*	*	*Itenor	*	*	*Itimpa	*	*Icor	*	*Iempty	*	*Iempty	*	*Iempty	*
*I"Baſsi	*	*I"Baſso	*	*	*I"Tenore II	*	*	*I"Tenore I	*	*	*I"Tympano	*	*I"Corni in Es	*	*I"Clarino in C.	*	*I"2	*	*I"1	*
*I'Bs	*	*I'B	*	*	*I'T II	*	*	*I'T I	*	*	*I'Timp	*	*I'Cor I	*	*I'Clno	*	*I'Fg II	*	*I'Fg I	*
*clefF4	*	*clefF4	*	*	*clefC4	*	*	*clefC4	*	*	*clefF4	*	*clefG2	*	*clefG2	*	*clefF4	*	*clefF4	*
*	*	*	*	*	*	*	*	*	*	*	*	*	*ITrd5c9	*	*	*	*	*	*	*
*k[b-e-a-]	*	*k[b-e-a-]	*	*	*k[b-e-a-]	*	*	*k[b-e-a-]	*	*	*k[b-e-a-]	*	*k[b-e-a-]	*	*k[]	*	*k[b-e-a-]	*	*k[b-e-a-]	*
*c:	*	*c:	*	*	*c:	*	*	*c:	*	*	*c:	*	*	*	*c:	*	*c:	*	*c:	*
*M2/2	*	*M2/2	*	*	*M2/2	*	*	*M2/2	*	*	*M2/2	*	*M2/2	*	*M2/2	*	*M2/2	*	*M2/2	*
*met(c|)	*	*met(c|)	*	*	*met(c|)	*	*	*met(c|)	*	*	*met(c|)	*	*met(c|)	*	*met(c|)	*	*met(c|)	*	*met(c|)	*
=1	=1	=1	=1	=1	=1	=1	=1	=1	=1	=1	=1	=1	=1	=1	=1	=1	=1	=1	=1	=1
*	*	*	*	*	*	*	*	*	*	*	*	*	*^	*	*	*	*	*	*	*
*2\right	*	*	*	*	*	*	*	*	*	*	*	*	*	*	*	*	*	*	*	*	*
!	!	!	!	!	!	!	!	!	!	!	!	!	!	!	!	!	!	!	!	!LO:TX:a:t=P:problem=dziwny układ bemoli przy kluczu we wszystkich głosach	!
!	!LO:DY:a	!	!	!	!	!	!	!	!	!	!	!	!LO:TX:b:t=C G.	!	!	!LO:TX:a:t=Principale	!	!	!LO:DY:a	!LO:TX:a:B:t=Andante.	!LO:DY:a
2C\	f	1r	.	.	1r	.	.	1r	.	.	2C/	.	1r	1r	.	2c/	.	2C/	f	2C/	f
4.E-\	.	.	.	.	.	.	.	.	.	.	2r	.	.	.	.	2r	.	4.E-/	.	4.E-/	.
8C\	.	.	.	.	.	.	.	.	.	.	.	.	.	.	.	.	.	8C/	.	8C/	.
=2	=2	=2	=2	=2	=2	=2	=2	=2	=2	=2	=2	=2	=2	=2	=2	=2	=2	=2	=2	=2	=2
*	*	*	*	*	*	*	*	*	*	*	*tremolo	*	*2\right	*2\right	*	*2\right	*	*	*	*	*
!LO:TX:a:t=P:problem=diminuendolike accent	!	!	!	!	!	!	!	!	!	!	!	!	!LO:TX:a:t=P:problem=diminuendolike accent	!LO:TX:b:t=P:problem=diminuendolike accent	!	!LO:TX:a:t=P:problem=kawałek caudy do góry	!	!LO:TX:a:t=P:problem=diminuendolike accent	!	!LO:TX:a:t=P:problem=diminuendolike accent	!
2.G\^	.	1r	.	.	1r	.	.	1r	.	.	16GG/LL	.	(>2.g\^	2.G\^<	.	2.g\^	.	1G\^	.	1G\^	.
.	.	.	.	.	.	.	.	.	.	.	16GG/	.	.	.	.	.	.	.	.	.	.
.	.	.	.	.	.	.	.	.	.	.	16GG/	.	.	.	.	.	.	.	.	.	.
.	.	.	.	.	.	.	.	.	.	.	16GG/	.	.	.	.	.	.	.	.	.	.
.	.	.	.	.	.	.	.	.	.	.	16GG/	.	.	.	.	.	.	.	.	.	.
.	.	.	.	.	.	.	.	.	.	.	16GG/	.	.	.	.	.	.	.	.	.	.
.	.	.	.	.	.	.	.	.	.	.	16GG/	.	.	.	.	.	.	.	.	.	.
.	.	.	.	.	.	.	.	.	.	.	16GG/JJ	.	.	.	.	.	.	.	.	.	.
.	.	.	.	.	.	.	.	.	.	.	4GG/	.	.	.	.	.	.	.	.	.	.
!	!	!	!	!	!	!	!	!	!	!LO:DY:b	!	!	!	!	!	!	!	!	!	!	!
4r	.	.	.	.	.	.	.	.	.	p	4r	.	4r)	4r	.	4r	.	.	.	.	.
=3	=3	=3	=3	=3	=3	=3	=3	=3	=3	=3	=3	=3	=3	=3	=3	=3	=3	=3	=3	=3	=3
*	*	*	*	*	*	*	*	*	*	*	*	*	*	*	*	*	*	*	*	*2\right	*
1r	.	1r	.	.	1r	.	.	2G/	De	.	1r	.	1r	1r	.	1r	.	1r	.	2G\	.
!	!	!	!	!	!	!	!LO:DY:b	!	!	!	!	!	!	!	!	!	!	!	!	!	!
.	.	.	.	.	.	.	p	2G/	pro-	.	.	.	.	.	.	.	.	.	.	2G\	.
=4	=4	=4	=4	=4	=4	=4	=4	=4	=4	=4	=4	=4	=4	=4	=4	=4	=4	=4	=4	=4	=4
*	*	*	*	*	*	*	*	*	*	*	*	*	*	*	*	*	*	*2\right	*	*	*
1r	.	1r	.	.	2E-/	De	.	[>1G/	-fun-	.	1r	.	1r	1r	.	1r	.	2E-\	.	1G\	.
.	.	.	.	.	2E-/	pro-	.	.	.	.	.	.	.	.	.	.	.	2E-\	.	.	.
=5	=5	=5	=5	=5	=5	=5	=5	=5	=5	=5	=5	=5	=5	=5	=5	=5	=5	=5	=5	=5	=5
2C\	.	2C/	De	.	1E-/	-fun-	.	1G/]	.	.	1r	.	1r	1r	.	1r	.	1E-\	.	[>1G\	.
2C\	.	2C/	pro-	.	.	.	.	.	.	.	.	.	.	.	.	.	.	.	.	.	.
=6	=6	=6	=6	=6	=6	=6	=6	=6	=6	=6	=6	=6	=6	=6	=6	=6	=6	=6	=6	=6	=6
2BBn\	.	2BBn/	-fun-	.	2D/	.	.	(<4G/	.	.	1r	.	2r	2r	.	1r	.	2D\	.	4G\]	.
.	.	.	.	.	.	.	.	4F/)	.	.	.	.	.	.	.	.	.	.	.	4F\	.
4C\	.	4C/	-dis	.	4E-/	-dis	.	4E-/	-dis	.	.	.	4r	4r	.	.	.	4E-\	.	4E-\	.
4BB-X/	.	4BB-X/	cla-	.	4D/	cla-	.	4G/	cla-	.	.	.	4g/	4d\	.	.	.	4D\	.	4G\	.
=7	=7	=7	=7	=7	=7	=7	=7	=7	=7	=7	=7	=7	=7	=7	=7	=7	=7	=7	=7	=7	=7
!	!	!LO:TX:a:t=P:problem=diminuendolike accent	!	!	!	!	!	!LO:TX:a:t=P:problem=diminuendolike accent	!	!	!	!	!	!	!	!	!	!	!	!LO:TX:a:t=P:problem=diminuendolike accent	!
1AA-/	.	1AA-/^>	-ma-	.	1E-/	-ma-	.	1c\^	-ma-	.	16C/LL	.	2.e-/^>	2.e-\	.	4r	.	1E-\	.	(>1c\^	.
.	.	.	.	.	.	.	.	.	.	.	16C/	.	.	.	.	.	.	.	.	.	.
.	.	.	.	.	.	.	.	.	.	.	16C/	.	.	.	.	.	.	.	.	.	.
.	.	.	.	.	.	.	.	.	.	.	16C/	.	.	.	.	.	.	.	.	.	.
.	.	.	.	.	.	.	.	.	.	.	16C/	.	.	.	.	8.cc\L	.	.	.	.	.
.	.	.	.	.	.	.	.	.	.	.	16C/	.	.	.	.	.	.	.	.	.	.
.	.	.	.	.	.	.	.	.	.	.	16C/	.	.	.	.	.	.	.	.	.	.
.	.	.	.	.	.	.	.	.	.	.	16C/	.	.	.	.	16cc\Jk	.	.	.	.	.
.	.	.	.	.	.	.	.	.	.	.	16C/	.	.	.	.	4cc\	.	.	.	.	.
.	.	.	.	.	.	.	.	.	.	.	16C/	.	.	.	.	.	.	.	.	.	.
.	.	.	.	.	.	.	.	.	.	.	16C/	.	.	.	.	.	.	.	.	.	.
.	.	.	.	.	.	.	.	.	.	.	16C/	.	.	.	.	.	.	.	.	.	.
.	.	.	.	.	.	.	.	.	.	.	16C/	.	4r	4r	.	4cc\	.	.	.	.	.
.	.	.	.	.	.	.	.	.	.	.	16C/	.	.	.	.	.	.	.	.	.	.
.	.	.	.	.	.	.	.	.	.	.	16C/	.	.	.	.	.	.	.	.	.	.
.	.	.	.	.	.	.	.	.	.	.	16C/JJ	.	.	.	.	.	.	.	.	.	.
=8	=8	=8	=8	=8	=8	=8	=8	=8	=8	=8	=8	=8	=8	=8	=8	=8	=8	=8	=8	=8	=8
*	*	*	*	*	*	*	*	*2\right	*	*	*	*	*	*	*	*	*	*	*	*	*
2GG/	.	2GG/	-vi	.	2G/	-vi	.	2Bn\	-vi	.	4GG/	.	4r	4r	.	4dd\	.	2G\	.	2Bn\)	.
.	.	.	.	.	.	.	.	.	.	.	4r	.	8.g\L	8.G\L	.	8.g/L	.	.	.	.	.
.	.	.	.	.	.	.	.	.	.	.	.	.	16g\Jk	16G\Jk	.	16g/Jk	.	.	.	.	.
2r	.	2r	.	.	2r	.	.	2r	.	.	2r	.	4g\	4G\	.	4g/	.	2r	.	2r	.
.	.	.	.	.	.	.	.	.	.	.	.	.	4g\	4G\	.	4g/	.	.	.	.	.
=9	=9	=9	=9	=9	=9	=9	=9	=9	=9	=9	=9	=9	=9	=9	=9	=9	=9	=9	=9	=9	=9
*	*	*2\right	*	*	*2\right	*	*	*	*	*	*	*	*	*	*	*	*	*	*	*	*
!LO:TX:a:t=P:problem=diminuendolike accent	!	!	!	!	!	!	!	!LO:TX:a:t=P:problem=diminuendolike accent	!	!	!	!	!	!LO:TX:a:t=P:problem=diminuendolike accent	!	!LO:TX:a:t=P:problem=diminuendolike accent	!	!LO:TX:a:t=P:problem=diminuendolike accent	!	!LO:TX:a:t=P:problem=diminuendolike accent	!
1F/^	.	2.F\	Domi-	.	2.Bn\	Domi-	.	2.d\^	Do-	.	16GG/LL	.	1g/^>	1G/	.	1g/^>	.	1Bn\^	.	1d\^	.
.	.	.	.	.	.	.	.	.	.	.	16GG/	.	.	.	.	.	.	.	.	.	.
.	.	.	.	.	.	.	.	.	.	.	16GG/	.	.	.	.	.	.	.	.	.	.
.	.	.	.	.	.	.	.	.	.	.	16GG/JJ	.	.	.	.	.	.	.	.	.	.
.	.	.	.	.	.	.	.	.	.	.	8GG/	.	.	.	.	.	.	.	.	.	.
.	.	.	.	.	.	.	.	.	.	.	8r	.	.	.	.	.	.	.	.	.	.
.	.	.	.	.	.	.	.	.	.	.	2r	.	.	.	.	.	.	.	.	.	.
.	.	4F\	-ne	.	4B\	-ne	.	4d\	-mi-	.	.	.	.	.	.	.	.	.	.	.	.
=10	=10	=10	=10	=10	=10	=10	=10	=10	=10	=10	=10	=10	=10	=10	=10	=10	=10	=10	=10	=10	=10
2E-\	.	2E-\	.	.	2c\	.	.	2c\	-ne	.	1r	.	4g\	4G\	.	4g/	.	2c\	.	2c\	.
.	.	.	.	.	.	.	.	.	.	.	.	.	8.g\L	8.G\L	.	8.g/L	.	.	.	.	.
.	.	.	.	.	.	.	.	.	.	.	.	.	16g\Jk	16G\Jk	.	16g/Jk	.	.	.	.	.
2r	.	2r	.	.	2r	.	.	2r	.	.	.	.	4g\	4G\	.	4g/	.	2r	.	2r	.
.	.	.	.	.	.	.	.	.	.	.	.	.	4g\	4G\	.	4g/	.	.	.	.	.
=11	=11	=11	=11	=11	=11	=11	=11	=11	=11	=11	=11	=11	=11	=11	=11	=11	=11	=11	=11	=11	=11
!	!	!	!	!	!	!	!	!LO:TX:a:t=P:problem=diminuendolike accent	!	!	!	!	!LO:TX:a:t=P:problem=diminuendolike accent	!	!	!	!	!	!	!LO:TX:a:t=P:problem=diminuendolike accent	!
1F/^	.	2.F\	Do-	.	2.Bn\	Domi-	.	2.d\^	Do-	.	16GG/LL	.	1g/^>	1G/	.	(<1g/	.	(>1Bn\	.	(>1d\^	.
.	.	.	.	.	.	.	.	.	.	.	16GG/	.	.	.	.	.	.	.	.	.	.
.	.	.	.	.	.	.	.	.	.	.	16GG/	.	.	.	.	.	.	.	.	.	.
.	.	.	.	.	.	.	.	.	.	.	16GG/JJ	.	.	.	.	.	.	.	.	.	.
.	.	.	.	.	.	.	.	.	.	.	8GG/	.	.	.	.	.	.	.	.	.	.
.	.	.	.	.	.	.	.	.	.	.	8r	.	.	.	.	.	.	.	.	.	.
.	.	.	.	.	.	.	.	.	.	.	2r	.	.	.	.	.	.	.	.	.	.
.	.	4F\	-mi-	.	4B\	-ne	.	4d\	-mi-	.	.	.	.	.	.	.	.	.	.	.	.
=12	=12	=12	=12	=12	=12	=12	=12	=12	=12	=12	=12	=12	=12	=12	=12	=12	=12	=12	=12	=12	=12
!	!	!	!	!	!	!	!LO:DY:a	!	!	!	!	!	!	!	!	!	!	!	!	!	!
4E-\	.	4E-\	-ne,	.	4c\	.	f	4c\	-ne	.	1r	.	4g\	4G\	.	4g/)	.	4c\)	.	4c\)	.
4r	.	4r	.	.	4c\	ex-	.	4e-\	ex-	.	.	.	4r	4r	.	4r	.	4c\	.	4e-\	.
2r	.	2r	.	.	4c\	-au-	.	4e-\	-au-	.	.	.	2r	2r	.	2r	.	4c\	.	4e-\	.
.	.	.	.	.	4c\	-di	.	4e-\	-di	.	.	.	.	.	.	.	.	4c\	.	4e-\	.
=13	=13	=13	=13	=13	=13	=13	=13	=13	=13	=13	=13	=13	=13	=13	=13	=13	=13	=13	=13	=13	=13
!	!	!	!	!	!LO:TX:a:t=P:problem=brak początku ligatury	!	!	!	!	!	!	!	!	!	!	!	!	!	!	!	!
4r	.	4r	.	.	[1c\	vo-	.	1e-\	vo-	.	4r	.	1r	1r	.	4r	.	1c\	.	1e-\	.
4C/	.	4C/	ex-	.	.	.	.	.	.	.	8.C/L	.	.	.	.	8.c/L	.	.	.	.	.
.	.	.	.	.	.	.	.	.	.	.	16C/Jk	.	.	.	.	16c/Jk	.	.	.	.	.
4E-/	.	4E-/	-au-	.	.	.	.	.	.	.	4C/	.	.	.	.	4c/	.	.	.	.	.
4FF#X/	.	4FF#X/	-di	.	.	.	.	.	.	.	4C/	.	.	.	.	4c/	.	.	.	.	.
=14	=14	=14	=14	=14	=14	=14	=14	=14	=14	=14	=14	=14	=14	=14	=14	=14	=14	=14	=14	=14	=14
!!LO:PB:g=original
!	!	!	!	!	!	!	!	!	!	!	!	!	!	!	!	!	!	!LO:TX:a:t=P:problem=rozmazana nuta	!	!	!
2GG/	.	2GG/	vo-	.	2c\]	.	.	1d\	-cem	.	16GG/LL	.	4r	4r	.	1G/	.	2c\	.	1d\	.
.	.	.	.	.	.	.	.	.	.	.	16GG/	.	.	.	.	.	.	.	.	.	.
.	.	.	.	.	.	.	.	.	.	.	16GG/	.	.	.	.	.	.	.	.	.	.
.	.	.	.	.	.	.	.	.	.	.	16GG/	.	.	.	.	.	.	.	.	.	.
.	.	.	.	.	.	.	.	.	.	.	16GG/	.	8.g\L	8.G\L	.	.	.	.	.	.	.
.	.	.	.	.	.	.	.	.	.	.	16GG/	.	.	.	.	.	.	.	.	.	.
.	.	.	.	.	.	.	.	.	.	.	16GG/	.	.	.	.	.	.	.	.	.	.
.	.	.	.	.	.	.	.	.	.	.	16GG/	.	16g\Jk	16G\Jk	.	.	.	.	.	.	.
2GG/	.	2GG/ 2G/	-cem	.	2Bn\	-cem	.	.	.	.	16GG/	.	4g\	4G\	.	.	.	2Bn\	.	.	.
.	.	.	.	.	.	.	.	.	.	.	16GG/	.	.	.	.	.	.	.	.	.	.
.	.	.	.	.	.	.	.	.	.	.	16GG/	.	.	.	.	.	.	.	.	.	.
.	.	.	.	.	.	.	.	.	.	.	16GG/	.	.	.	.	.	.	.	.	.	.
.	.	.	.	.	.	.	.	.	.	.	16GG/	.	4g\	4G\	.	.	.	.	.	.	.
.	.	.	.	.	.	.	.	.	.	.	16GG/	.	.	.	.	.	.	.	.	.	.
.	.	.	.	.	.	.	.	.	.	.	16GG/	.	.	.	.	.	.	.	.	.	.
.	.	.	.	.	.	.	.	.	.	.	16GG/JJ	.	.	.	.	.	.	.	.	.	.
=15	=15	=15	=15	=15	=15	=15	=15	=15	=15	=15	=15	=15	=15	=15	=15	=15	=15	=15	=15	=15	=15
!	!	!	!	!	!	!	!	!	!	!	!	!	!	!	!	!	!	!	!	!LO:TX:a:t=P:problem=łuk nad nutami	!
1C/	.	1C/	me-	.	1c\	me-	.	(>1c\ 1e-\	me-	.	16C/LL	.	1g/	1e-/	.	1c/	.	1c\	.	1e-\ 1c\	.
.	.	.	.	.	.	.	.	.	.	.	16C/	.	.	.	.	.	.	.	.	.	.
.	.	.	.	.	.	.	.	.	.	.	16C/	.	.	.	.	.	.	.	.	.	.
.	.	.	.	.	.	.	.	.	.	.	16C/	.	.	.	.	.	.	.	.	.	.
.	.	.	.	.	.	.	.	.	.	.	16C/	.	.	.	.	.	.	.	.	.	.
.	.	.	.	.	.	.	.	.	.	.	16C/	.	.	.	.	.	.	.	.	.	.
.	.	.	.	.	.	.	.	.	.	.	16C/	.	.	.	.	.	.	.	.	.	.
.	.	.	.	.	.	.	.	.	.	.	16C/	.	.	.	.	.	.	.	.	.	.
.	.	.	.	.	.	.	.	.	.	.	16C/	.	.	.	.	.	.	.	.	.	.
.	.	.	.	.	.	.	.	.	.	.	16C/	.	.	.	.	.	.	.	.	.	.
.	.	.	.	.	.	.	.	.	.	.	16C/	.	.	.	.	.	.	.	.	.	.
.	.	.	.	.	.	.	.	.	.	.	16C/	.	.	.	.	.	.	.	.	.	.
.	.	.	.	.	.	.	.	.	.	.	16C/	.	.	.	.	.	.	.	.	.	.
.	.	.	.	.	.	.	.	.	.	.	16C/	.	.	.	.	.	.	.	.	.	.
.	.	.	.	.	.	.	.	.	.	.	16C/	.	.	.	.	.	.	.	.	.	.
.	.	.	.	.	.	.	.	.	.	.	16C/JJ	.	.	.	.	.	.	.	.	.	.
=16	=16	=16	=16	=16	=16	=16	=16	=16	=16	=16	=16	=16	=16	=16	=16	=16	=16	=16	=16	=16	=16
*	*	*	*	*	*	*	*	*	*	*	*	*	*	*	*	*	*	*	*	*^	*
2C/	.	2C/	-am	.	2c\	-am	.	2c\) 2e-\	-am	.	2C/	.	1g/	2e-\	.	2c/	.	2C/	.	2C	2e-/	.
4.E-/	.	2r	.	.	2r	.	.	2r	.	.	2r	.	.	2r	.	2r	.	4.E-/	.	2ryy	4.E-/	.
8C/	.	.	.	.	.	.	.	.	.	.	.	.	.	.	.	.	.	8C/	.	.	8C/	.
*	*	*	*	*	*	*	*	*	*	*	*	*	*	*	*	*	*	*	*	*v	*v	*
=17	=17	=17	=17	=17	=17	=17	=17	=17	=17	=17	=17	=17	=17	=17	=17	=17	=17	=17	=17	=17	=17
!	!	!	!	!	!	!	!	!	!	!	!	!	!LO:TX:a:t=P:problem=diminuendolike accent	!LO:TX:b:t=P:problem=diminuendolike accent	!	!LO:TX:a:t=P:problem=diminuendolike accent	!	!	!	!	!LO:DY:a
2.G\	.	1r	.	.	1r	.	.	2G/	Fi-	.	16GG/LL	.	2.g\^	2.G^<\	.	2.g/^>	.	2.G\	.	2G\	fp
.	.	.	.	.	.	.	.	.	.	.	16GG/	.	.	.	.	.	.	.	.	.	.
.	.	.	.	.	.	.	.	.	.	.	16GG/	.	.	.	.	.	.	.	.	.	.
.	.	.	.	.	.	.	.	.	.	.	16GG/	.	.	.	.	.	.	.	.	.	.
.	.	.	.	.	.	.	.	.	.	.	16GG/	.	.	.	.	.	.	.	.	.	.
.	.	.	.	.	.	.	.	.	.	.	16GG/	.	.	.	.	.	.	.	.	.	.
.	.	.	.	.	.	.	.	.	.	.	16GG/	.	.	.	.	.	.	.	.	.	.
.	.	.	.	.	.	.	.	.	.	.	16GG/JJ	.	.	.	.	.	.	.	.	.	.
.	.	.	.	.	.	.	.	2G/	-ànt	.	4GG/	.	.	.	.	.	.	.	.	2G\	.
4r	.	.	.	.	.	.	.	.	.	.	4r	.	4r	4ryy	.	4r	.	4r	.	.	.
=18	=18	=18	=18	=18	=18	=18	=18	=18	=18	=18	=18	=18	=18	=18	=18	=18	=18	=18	=18	=18	=18
1r	.	1r	.	.	2E-/	Fi-	.	1G/	au-	.	1r	.	1r	1r	.	1r	.	2E-\	.	1G\	.
.	.	.	.	.	2E-/	-ànt	.	.	.	.	.	.	.	.	.	.	.	2E-\	.	.	.
=19	=19	=19	=19	=19	=19	=19	=19	=19	=19	=19	=19	=19	=19	=19	=19	=19	=19	=19	=19	=19	=19
!	!	!	!	!LO:DY:a	!	!	!	!	!	!	!	!	!	!	!	!	!	!	!	!	!
2C/	.	2C/	Fi-	p	1E-/	au-	.	1G/	.	.	1r	.	1r	1r	.	1r	.	1E-\	.	1G\	.
2C/	.	2C/	-ànt	.	.	.	.	.	.	.	.	.	.	.	.	.	.	.	.	.	.
=20	=20	=20	=20	=20	=20	=20	=20	=20	=20	=20	=20	=20	=20	=20	=20	=20	=20	=20	=20	=20	=20
2BBn/	.	2BBn/	au-	.	2D/	.	.	(<4G/	.	.	1r	.	2r	2r	.	1r	.	2D\	.	(>4G\	.
.	.	.	.	.	.	.	.	4F/)	.	.	.	.	.	.	.	.	.	.	.	4F\)	.
4C/	.	4C/	-res	.	4E-/	-res	.	4E-/	-res	.	.	.	4r	4r	.	.	.	4E-\	.	4E-\	.
!	!	!	!	!	!	!	!	!	!	!	!	!	!LO:TX:a:t=P:problem=brak caudy	!	!	!	!	!	!	!	!
4BB-X/	.	8BB-X/	in-	.	8D/	in-	.	8G/	in-	.	.	.	4g	4d\	.	.	.	4D\	.	4G\	.
.	.	8BB-/	-ten-	.	8D/	-ten-	.	8G/	-ten-	.	.	.	.	.	.	.	.	.	.	.	.
=21	=21	=21	=21	=21	=21	=21	=21	=21	=21	=21	=21	=21	=21	=21	=21	=21	=21	=21	=21	=21	=21
!LO:TX:a:t=P:problem=diminuendolike accent	!	!LO:TX:a:t=P:problem=diminuendolike accent	!	!	!LO:TX:a:t=P:problem=diminuendolike accent	!	!	!LO:TX:a:t=P:problem=diminuendolike accent	!	!	!	!	!LO:TX:b:t=P:problem=diminuendolike accent	!LO:TX:a:t=P:problem=diminuendolike accent	!	!	!	!	!	!LO:TX:a:t=P:problem=diminuendolike accent	!
1AA-^\	.	1AA-^\	-den-	.	1E-^\	-den-	.	1c\^	-den-	.	16C/LL	.	2.e-/^	2.e-\^	.	4r	.	1E-\	.	1c\^	.
.	.	.	.	.	.	.	.	.	.	.	16C/	.	.	.	.	.	.	.	.	.	.
.	.	.	.	.	.	.	.	.	.	.	16C/	.	.	.	.	.	.	.	.	.	.
.	.	.	.	.	.	.	.	.	.	.	16C/	.	.	.	.	.	.	.	.	.	.
.	.	.	.	.	.	.	.	.	.	.	16C/	.	.	.	.	8.cc\L	.	.	.	.	.
.	.	.	.	.	.	.	.	.	.	.	16C/	.	.	.	.	.	.	.	.	.	.
.	.	.	.	.	.	.	.	.	.	.	16C/	.	.	.	.	.	.	.	.	.	.
.	.	.	.	.	.	.	.	.	.	.	16C/	.	.	.	.	16cc\Jk	.	.	.	.	.
.	.	.	.	.	.	.	.	.	.	.	16C/	.	.	.	.	4cc\	.	.	.	.	.
.	.	.	.	.	.	.	.	.	.	.	16C/	.	.	.	.	.	.	.	.	.	.
.	.	.	.	.	.	.	.	.	.	.	16C/	.	.	.	.	.	.	.	.	.	.
.	.	.	.	.	.	.	.	.	.	.	16C/	.	.	.	.	.	.	.	.	.	.
.	.	.	.	.	.	.	.	.	.	.	16C/	.	4r	4r	.	4cc\	.	.	.	.	.
.	.	.	.	.	.	.	.	.	.	.	16C/	.	.	.	.	.	.	.	.	.	.
.	.	.	.	.	.	.	.	.	.	.	16C/	.	.	.	.	.	.	.	.	.	.
.	.	.	.	.	.	.	.	.	.	.	16C/JJ	.	.	.	.	.	.	.	.	.	.
=22	=22	=22	=22	=22	=22	=22	=22	=22	=22	=22	=22	=22	=22	=22	=22	=22	=22	=22	=22	=22	=22
4GG/	.	4GG/	-tes	.	4G/	-tes	.	4Bn\	-tes	.	4GG/	.	4g\	4G\	.	4dd\	.	4G\	.	4Bn\	.
4r	.	4r	.	.	4G/	in	.	4B\	in	.	4r	.	4r	4r	.	4r	.	4G\	.	4B\	.
2r	.	2r	.	.	4G/	vo-	.	4B\	vo-	.	2r	.	2r	2r	.	2r	.	4G\	.	4B\	.
.	.	.	.	.	4G/	-cem	.	4B\	-cem	.	.	.	.	.	.	.	.	4G\	.	4B\	.
=23	=23	=23	=23	=23	=23	=23	=23	=23	=23	=23	=23	=23	=23	=23	=23	=23	=23	=23	=23	=23	=23
4r	.	4r	.	.	2.Bn\	de-	.	2.d\	de-	.	1r	.	2r	2ryy	.	1r	.	(>1Bn\	.	(>1d\	.
4F\	.	4F\	in	.	.	.	.	.	.	.	.	.	.	.	.	.	.	.	.	.	.
4F\	.	4F\	vo-	.	.	.	.	.	.	.	.	.	4r	4ryy	.	.	.	.	.	.	.
4F\	.	4F\	-cem	.	4B\	-pre-	.	4d\	-pre-	.	.	.	4a-/^	4a-\	.	.	.	.	.	.	.
=24	=24	=24	=24	=24	=24	=24	=24	=24	=24	=24	=24	=24	=24	=24	=24	=24	=24	=24	=24	=24	=24
2.E-\	.	2.E-\	de-	.	2.c\	-ca-	.	2.c\	-ca-	.	2r	.	4g\	2.ryy	.	2r	.	2.c\)	.	2.c\)	.
.	.	.	.	.	.	.	.	.	.	.	.	.	8.g\L	.	.	.	.	.	.	.	.
.	.	.	.	.	.	.	.	.	.	.	.	.	16g\Jk	.	.	.	.	.	.	.	.
.	.	.	.	.	.	.	.	.	.	.	4r	.	4g\	.	.	4r	.	.	.	.	.
!	!	!LO:TX:a:t=P:problem=rozmazany tekst	!	!	!	!	!	!	!	!	!	!	!	!	!	!	!	!	!	!	!
4BBn/	.	4BBn/	-pre-	.	4G/	-ti-	.	4d\	-ti-	.	4GG/	.	4g\	4G\	.	4g/	.	4G\	.	4d\	.
=25	=25	=25	=25	=25	=25	=25	=25	=25	=25	=25	=25	=25	=25	=25	=25	=25	=25	=25	=25	=25	=25
!!LO:PB:g=original
2C/	.	2C/	-ca-	.	2G/	-o-	.	2.e-\	-o-	.	2C/	.	2g\	2G\	.	2g/	.	2G\	.	(>2.e-\	.
2GG/	.	2GG/	-ti-	.	2B-/	-nis	.	.	.	.	2r	.	2e-/	2e-\	.	2r	.	2B-\	.	.	.
.	.	.	.	.	.	.	.	[4d\	-nis	.	.	.	.	.	.	.	.	.	.	4d\	.
=26	=26	=26	=26	=26	=26	=26	=26	=26	=26	=26	=26	=26	=26	=26	=26	=26	=26	=26	=26	=26	=26
!	!	!	!	!	!	!	!	!	!	!	!	!	!	!	!	!	!	!	!	!LO:TX:a:t=P:problem=niejednoznaczne zakończenie łuku	!
2AA-/	.	2AA-/	-o-	.	2A-\	de-	.	4d\]	de-	.	1r	.	2e-/	2e-\	.	1r	.	2A-\	.	4d\)	.
.	.	.	.	.	.	.	.	4c\	.	.	.	.	.	.	.	.	.	.	.	4c\	.
!LO:TX:b:t=P:problem=pod ligaturą dopisany znak + lub przekreślenia	!	!	!	!	!	!	!	!	!	!	!	!	!	!	!	!	!	!	!	!	!
[2AA-/	.	2AA-/	-nis	.	2c\	-pre-	.	4f\	-pre-	.	.	.	2f/	2f\	.	.	.	2c\	.	4f\	.
.	.	.	.	.	.	.	.	4e-\	.	.	.	.	.	.	.	.	.	.	.	4e-\	.
=27	=27	=27	=27	=27	=27	=27	=27	=27	=27	=27	=27	=27	=27	=27	=27	=27	=27	=27	=27	=27	=27
!	!	!	!	!	!	!	!	!	!	!	!	!	!	!	!	!	!	!	!	!LO:TX:a:t=P:problem=przed łukiem dopisany duży znak + lub przekreślenia	!
2AA-/]	.	2AA-/	me-	.	2B-\	-cati	.	2d\	-ca-	.	1r	.	2f/	2B-\	.	1r	.	1B-\	.	(>2d\	.
2GG/	.	2GG/	-a	.	2B-\	.	.	(>2e-\	-ti-	.	.	.	2e-/	2e-\	.	.	.	.	.	2e-\)	.
=28	=28	=28	=28	=28	=28	=28	=28	=28	=28	=28	=28	=28	=28	=28	=28	=28	=28	=28	=28	=28	=28
1AA-/	.	1AA-/	me-	.	(>2c\	-o-	.	4e-\)	-o-	.	1r	.	2e-/	2e-\	.	1r	.	2c\	.	4e-\	.
.	.	.	.	.	.	.	.	(>4d\	.	.	.	.	.	.	.	.	.	.	.	4d\	.
.	.	.	.	.	4A-\	-nis	.	4c\	-nis	.	.	.	2r	2r	.	.	.	4A-\	.	4c\	.
.	.	.	.	.	4c\)	.	.	4f\)	.	.	.	.	.	.	.	.	.	4c\	.	4f\	.
=29	=29	=29	=29	=29	=29	=29	=29	=29	=29	=29	=29	=29	=29	=29	=29	=29	=29	=29	=29	=29	=29
1BB-/	.	1BB-/	.	.	2G/	me-	.	2e-\	me-	.	1r	.	2g\	2e-\	.	1r	.	(>2G\	.	2e-\	.
!	!	!	!	!	!	!	!	!LO:TX:a:t=P:problem=niejednoznaczne rozpoczęcie i zakończenie łuku	!	!	!	!	!	!	!	!	!	!	!	!	!
.	.	.	.	.	4.F/	.	.	(>4.d\	.	.	.	.	4.f\	4.B-\	.	.	.	4.F\	.	(>4.d\	.
.	.	.	.	.	8G/	.	.	8e-\)	.	.	.	.	8e-\	8G\	.	.	.	8G\	.	8e-\	.
=30	=30	=30	=30	=30	=30	=30	=30	=30	=30	=30	=30	=30	=30	=30	=30	=30	=30	=30	=30	=30	=30
2E-\	.	2E-\	-a	.	2G/	-a	.	2e-\	-a	.	1r	.	2e-\	2G\	.	1r	.	2G\)	.	2e-\)	.
4E-\	.	4E-\	Si	.	2r	.	.	2r	.	.	.	.	2r	2r	.	.	.	2r	.	2r	.
4E-\	.	4E-\	i-	.	.	.	.	.	.	.	.	.	.	.	.	.	.	.	.	.	.
=31	=31	=31	=31	=31	=31	=31	=31	=31	=31	=31	=31	=31	=31	=31	=31	=31	=31	=31	=31	=31	=31
!	!	!	!	!	!	!	!	!	!	!	!	!	!	!	!LO:DY:a	!	!	!	!	!	!
[1E-\	.	1E-\	-ni-	.	2r	.	.	1r	.	.	1r	.	4r	4r	p	1r	.	2r	.	1r	.
.	.	.	.	.	.	.	.	.	.	.	.	.	8.G/L	8.E-/L	.	.	.	.	.	.	.
.	.	.	.	.	.	.	.	.	.	.	.	.	16G/Jk	16E-/Jk	.	.	.	.	.	.	.
.	.	.	.	.	4G\	Si	.	.	.	.	.	.	4B-/	4G/	.	.	.	4G\	.	.	.
.	.	.	.	.	4G\	ini-	.	.	.	.	.	.	4r	4r	.	.	.	4G\	.	.	.
=32	=32	=32	=32	=32	=32	=32	=32	=32	=32	=32	=32	=32	=32	=32	=32	=32	=32	=32	=32	=32	=32
!	!	!	!	!	!	!	!	!LO:TX:a:t=P:problem=coś rozmazane na pauzie	!	!	!	!	!	!	!	!	!	!	!	!	!LO:DY:a:rj
1E-\_	.	1E-\	-qui-	.	1G/	.	.	2r	.	.	1r	.	4r	4r	.	1r	.	1G\	.	2r	p
.	.	.	.	.	.	.	.	.	.	.	.	.	8.B-/L	8.G/L	.	.	.	.	.	.	.
.	.	.	.	.	.	.	.	.	.	.	.	.	16B-/Jk	16G/Jk	.	.	.	.	.	.	.
.	.	.	.	.	.	.	.	4B-\	Si	.	.	.	4e-/	4G/	.	.	.	.	.	4B-\	.
.	.	.	.	.	.	.	.	4B-\	ini-	.	.	.	4r	4r	.	.	.	.	.	4B-\	.
=33	=33	=33	=33	=33	=33	=33	=33	=33	=33	=33	=33	=33	=33	=33	=33	=33	=33	=33	=33	=33	=33
1E-\]	.	2E-\	-ta-	.	1G/	-qui-	.	2B-\	-qui-	.	1r	.	4r	4r	.	1r	.	1G\	.	2B-\	.
.	.	.	.	.	.	.	.	.	.	.	.	.	8.e-/L	8.G/L	.	.	.	.	.	.	.
.	.	.	.	.	.	.	.	.	.	.	.	.	16e-/Jk	16G/Jk	.	.	.	.	.	.	.
.	.	2E-\	-tes	.	.	.	.	2B-\	-ta-	.	.	.	4g/	4e-/	.	.	.	.	.	2B-\	.
.	.	.	.	.	.	.	.	.	.	.	.	.	4r	4r	.	.	.	.	.	.	.
=34	=34	=34	=34	=34	=34	=34	=34	=34	=34	=34	=34	=34	=34	=34	=34	=34	=34	=34	=34	=34	=34
!	!	!	!	!	!	!	!	!	!	!LO:DY:a	!	!	!	!	!	!	!	!	!	!	!
2E-\	.	2E-\	ob-	.	4A-/	-ta-	.	4c\	-tes	<	1r	.	1ryy	(<1E-	.	1r	.	(>4A-\	.	(>4c\	.
.	.	.	.	.	4G/	-tes	.	4B-\	.	.	.	.	.	.	.	.	.	4G\	.	4B-\	.
2E-\	.	2E-\	-ſer-	.	4A-/	ob-	.	4c\	ob-	.	.	.	.	.	.	.	.	4A-\	.	4c\	.
.	.	.	.	.	4F/	-ſer-	.	4d\	-ſer-	.	.	.	.	.	.	.	.	4F\)	.	4d\)	.
=35	=35	=35	=35	=35	=35	=35	=35	=35	=35	=35	=35	=35	=35	=35	=35	=35	=35	=35	=35	=35	=35
2E-\	.	4.E-\	-vave-	.	4.G/	-va-	.	4.e-\	-va-	.	1r	.	2E-/	2E-/)	.	2r	.	2G\	.	2e-\	.
.	.	8E-\	-ris	.	8G/	-ve-	.	8e-\	-ve-	[	.	.	.	.	.	.	.	.	.	.	.
4r	f	4E-\	.	.	4G/	-ris	.	4e-\	-ris	.	.	.	4r	4r	.	4r	.	4r	.	4r	.
!	!	!	!	!	!	!	!	!	!	!	!	!	!	!	!LO:DY:a	!	!	!	!	!	!LO:DY:a
8.E-\L	.	4r	.	.	4r	.	.	4r	.	.	.	.	8.g\L	8.e-\L	f	8.g\L	.	8.G\L	.	8.e-\L	f
16E-\Jk	.	.	.	.	.	.	.	.	.	.	.	.	16g\Jk	16e-\Jk	.	16g\Jk	.	16G\Jk	.	16e-\Jk	.
=36	=36	=36	=36	=36	=36	=36	=36	=36	=36	=36	=36	=36	=36	=36	=36	=36	=36	=36	=36	=36	=36
!	!	!	!	!	!	!	!	!	!	!LO:DY:a	!	!	!	!	!	!LO:TX:a:t=P:problem=2c dopisane ołówkiem	!	!	!	!	!
2C/	.	4.C/	Do-	.	4.G/	Do-	.	4.e-\	Do-	f	2r	.	2g\	2e-\	.	2g\	.	2G\	.	2e-\	.
.	.	8C/	-mi-	.	8G/	-mi-	.	8e-\	-mi-	.	.	.	.	.	.	.	.	.	.	.	.
4r	.	4C/	-ne	.	4G/	-ne	.	4e-\	-ne	.	4r	.	4r	4r	.	4r	.	4r	.	4r	.
8.C/L	.	4r	.	.	4r	.	.	4r	.	.	8.C/L	.	8.e-/L	8.e-\L	.	8.c/L	.	8.G\L	.	8.e-\L	.
16C/Jk	.	.	.	.	.	.	.	.	.	.	16C/Jk	.	16e-/Jk	16e-\Jk	.	16c/Jk	.	16G\Jk	.	16e-\Jk	.
=37	=37	=37	=37	=37	=37	=37	=37	=37	=37	=37	=37	=37	=37	=37	=37	=37	=37	=37	=37	=37	=37
!!LO:PB:g=original
2C/	.	4r	.	.	4r	.	.	4r	.	.	2C/	.	2g-X/	2e-\	.	2c/	.	2An\	.	2e-\	.
.	.	4C/	quis	.	4An\	quis	.	4e-\	quis	.	.	.	.	.	.	.	.	.	.	.	.
2r	.	4C/	sus-	.	4A\	sus-	.	4e-\	sus-	.	2r	.	2r	2r	.	2r	.	2r	.	2r	.
.	.	4C/	-ti-	.	4A\	-ti-	.	4e-\	-ti-	.	.	.	.	.	.	.	.	.	.	.	.
=38	=38	=38	=38	=38	=38	=38	=38	=38	=38	=38	=38	=38	=38	=38	=38	=38	=38	=38	=38	=38	=38
4r	.	4BB-/	-ne-	.	4B-\	-ne-	.	4d\	-ne-	.	2r	.	4r	4r	.	4r	.	4r	.	4r	.
.	.	.	.	.	.	.	.	.	.	.	.	.	.	.	.	.	.	.	.	.	.
8.r	.	8BB-/	-bit	.	8B-\	-bit	.	8d\	-bit	.	.	.	8.r	8.r	.	8.r	.	8.r	.	8.r	.
.	.	8r	.	.	8r	.	.	8r	.	.	.	.	.	.	.	.	.	.	.	.	.
!	!	!	!	!	!	!	!	!	!	!	!	!	!LO:TX:a:t=P:problem=brak caudy	!	!	!	!	!	!	!	!
16BB-/	.	.	.	.	.	.	.	.	.	.	.	.	16f	16B-\	.	16b-\	.	16B-\	.	16d\	.
!	!	!	!	!	!	!	!	!	!	!	!	!	!LO:TX:a:t=P:problem=brak fermaty	!	!	!	!	!	!	!LO:TX:a:t=P:problem=nad fermatą dopisany duży znak +	!
2BB-/;<	.	2r;	.	.	2r;	.	.	2r;	.	.	2r;	.	2f\	2B-\	.	2b-\;	.	2B-\;	.	2d\;	.
=39	=39	=39	=39	=39	=39	=39	=39	=39	=39	=39	=39	=39	=39	=39	=39	=39	=39	=39	=39	=39	=39
!	!	!	!	!	!	!	!	!	!	!	!	!	!LO:TX:a:t=dolce	!	!	!	!	!	!	!	!
1r	.	1r	.	.	1r	.	.	1r	.	.	1r	.	2e-\	2G\	.	1r	.	1r	.	1r	.
.	.	.	.	.	.	.	.	.	.	.	.	.	2f\	2B-\	.	.	.	.	.	.	.
=40	=40	=40	=40	=40	=40	=40	=40	=40	=40	=40	=40	=40	=40	=40	=40	=40	=40	=40	=40	=40	=40
1r	.	1r	.	.	1r	.	.	1r	.	.	1r	.	4g\	4e-\	.	1r	.	1r	.	1r	.
.	.	.	.	.	.	.	.	.	.	.	.	.	4f\	4B-\	.	.	.	.	.	.	.
!	!	!	!	!	!	!	!	!	!	!	!	!	!LO:TX:a:t=P:problem=brak caudy	!	!	!	!	!	!	!	!
.	.	.	.	.	.	.	.	.	.	.	.	.	4e-	4G\	.	.	.	.	.	.	.
!	!	!	!	!	!	!	!	!	!	!	!	!	!LO:TX:a:t=P:problem=brak caudy	!	!	!	!	!	!	!	!
.	.	.	.	.	.	.	.	.	.	.	.	.	4f	4B-\	.	.	.	.	.	.	.
=41	=41	=41	=41	=41	=41	=41	=41	=41	=41	=41	=41	=41	=41	=41	=41	=41	=41	=41	=41	=41	=41
!	!	!	!	!	!	!	!	!LO:TX:a:t=Solo	!	!	!	!	!	!	!	!	!	!	!	!	!
1r	.	1r	.	.	1r	.	.	4B-\	Qui-	.	1r	.	2e-\	2G\	.	1r	.	1r	.	1r	.
.	.	.	.	.	.	.	.	4c\	-a	.	.	.	.	.	.	.	.	.	.	.	.
.	.	.	.	.	.	.	.	4d\	a-	.	.	.	2r	2r	.	.	.	.	.	.	.
!	!	!LO:TX:a:t=Solo	!	!	!LO:TX:a:t=Solo	!	!	!	!	!	!	!	!	!	!	!	!	!	!	!	!
.	.	.	.	.	.	.	.	4e-\	-pud	.	.	.	.	.	.	.	.	.	.	.	.
=42	=42	=42	=42	=42	=42	=42	=42	=42	=42	=42	=42	=42	=42	=42	=42	=42	=42	=42	=42	=42	=42
!	!	!	!	!	!	!	!	!	!	!	!	!	!	!	!	!	!	!	!	!LO:TX:a:t=P:problem=nie jestem pewna, czy to f czy zwykły ptaszek	!
!	!	!	!	!	!	!	!	!	!	!	!	!	!	!	!	!	!	!	!LO:DY:a:rj	!	!LO:DY:a:rj
1r	.	1r	.	.	1r	.	.	2.B-\	te	.	1r	.	1r	1r	.	1r	.	4r	p	4r	f
.	.	.	.	.	.	.	.	.	.	.	.	.	.	.	.	.	.	4E-\	.	(>4G\	.
.	.	.	.	.	.	.	.	.	.	.	.	.	.	.	.	.	.	4D\	.	4F\	.
.	.	.	.	.	.	.	.	4G\	pro-	.	.	.	.	.	.	.	.	4E-\	.	4G\)	.
=43	=43	=43	=43	=43	=43	=43	=43	=43	=43	=43	=43	=43	=43	=43	=43	=43	=43	=43	=43	=43	=43
1r	.	1r	.	.	1r	.	.	4.A-\	-pi-	.	1r	.	(>1f/	1B-/	.	1r	.	4D\	.	4F\	.
.	.	.	.	.	.	.	.	.	.	.	.	.	.	.	.	.	.	4BB-\	.	4r	.
.	.	.	.	.	.	.	.	8G\	-ti-	.	.	.	.	.	.	.	.	.	.	.	.
.	.	.	.	.	.	.	.	8F\L	-a-	.	.	.	.	.	.	.	.	4D\	.	4A-\	.
.	.	.	.	.	.	.	.	8G\J	.	.	.	.	.	.	.	.	.	.	.	.	.
!	!	!	!	!	!	!	!	!LO:TX:a:t=P:problem=niejednoznaczny początek łuku	!	!	!	!	!	!	!	!	!	!	!	!	!
.	.	.	.	.	.	.	.	(>8A-\	-ti-	.	.	.	.	.	.	.	.	4BB-\	.	4r	.
.	.	.	.	.	.	.	.	16c\LL	-o	.	.	.	.	.	.	.	.	.	.	.	.
.	.	.	.	.	.	.	.	16B-\JJ	.	.	.	.	.	.	.	.	.	.	.	.	.
=44	=44	=44	=44	=44	=44	=44	=44	=44	=44	=44	=44	=44	=44	=44	=44	=44	=44	=44	=44	=44	=44
!	!	!	!	!	!LO:TX:a:t=solo	!	!	!	!	!	!	!	!LO:TX:a:t=P:problem=brak caudy	!	!	!	!	!	!	!	!
1r	.	4E-\	qui-	.	4G/	qui-	.	2B-\)	est	.	1r	.	4e-)	4G\	.	1r	.	(>4E-\	.	(>4G\	.
.	.	4F\	-a	.	4A-/	-a	.	.	.	.	.	.	4r	2.ryy	.	.	.	4F\	.	4A-\	.
.	.	4G\	a-	.	4B-/	a-	.	2r	.	.	.	.	2r	.	.	.	.	4G\	.	4B-\	.
.	.	4A-\	-pud	.	4c/	-pud	.	.	.	.	.	.	.	.	.	.	.	4A-\)	.	4c\	.
=45	=45	=45	=45	=45	=45	=45	=45	=45	=45	=45	=45	=45	=45	=45	=45	=45	=45	=45	=45	=45	=45
4BB-\	.	2.F\	te	.	2.A-/	te	.	2r	.	.	1r	.	1r	1r	.	1r	.	(>2.F\	.	(>2.A-\)	.
4C\	.	.	.	.	.	.	.	.	.	.	.	.	.	.	.	.	.	.	.	.	.
4D\	.	.	.	.	.	.	.	4r	.	.	.	.	.	.	.	.	.	.	.	.	.
4E-\	.	4E-\	pro-	.	4G/	pro-	.	4e-\	pro-	.	.	.	.	.	.	.	.	4E-\)	.	4G\)	.
=46	=46	=46	=46	=46	=46	=46	=46	=46	=46	=46	=46	=46	=46	=46	=46	=46	=46	=46	=46	=46	=46
2.C/	.	2.C/	-pi-	.	2.G/	-pi-	.	2.e-\	-pi-	.	1r	.	1r	1r	.	1r	.	1G\	.	(>2.e-\	.
4BB-/	.	4BB-/	-ti-	.	4G/	-ti-	.	4d\	-ti-	.	.	.	.	.	.	.	.	.	.	4d\	.
=47	=47	=47	=47	=47	=47	=47	=47	=47	=47	=47	=47	=47	=47	=47	=47	=47	=47	=47	=47	=47	=47
2AA-/	.	2AA-/	-a-	.	2A-\	-a-	.	(>4c\	-a-	.	1r	.	1r	1r	.	1r	.	2A-\	.	4c\	.
.	.	.	.	.	.	.	.	4d\)	.	.	.	.	.	.	.	.	.	.	.	4d\)	.
4.AA-/	.	4.AA-/	-ti-	.	4.c\	-ti-	.	4e-\	-ti-	.	.	.	.	.	.	.	.	4.c\	.	4e-\	.
.	.	.	.	.	.	.	.	4f\	-o	.	.	.	.	.	.	.	.	.	.	4f\	.
8AAn/	.	8AAn/	-o	.	8c\	-o	.	.	.	.	.	.	.	.	.	.	.	8c\	.	.	.
=48	=48	=48	=48	=48	=48	=48	=48	=48	=48	=48	=48	=48	=48	=48	=48	=48	=48	=48	=48	=48	=48
!!LO:PB:g=original
.	.	.	.	.	.	.	.	4qqe-/	.	.	.	.	.	.	.	.	.	.	.	.	.
!	!	!	!	!	!	!	!	!	!	!	!	!	!	!	!	!	!	!	!	!LO:TX:a:t=P:problem=nie jestem pewna, czy to f	!LO:DY:a
2BB-/	.	2BB-/	est	.	2F/	est	.	2d\	est	.	1r	.	4r	4r	.	1r	.	2F\	.	2d\	f
!	!	!	!	!	!	!	!	!	!	!	!	!	!LO:TX:a:t=P:problem=brak caudy	!	!	!	!	!	!	!	!
.	.	.	.	.	.	.	.	.	.	.	.	.	8.fL	8.B-\L	.	.	.	.	.	.	.
!	!	!	!	!	!	!	!	!	!	!	!	!	!LO:TX:a:t=P:problem=brak caudy	!	!	!	!	!	!	!	!
.	.	.	.	.	.	.	.	.	.	.	.	.	16fJk	16B-\Jk	.	.	.	.	.	.	.
2r	.	2r	.	.	2r	.	.	2r	.	.	.	.	4f\	4B-\	.	.	.	2r	.	2r	.
!	!	!	!	!	!	!	!	!	!	!	!	!	!LO:TX:a:t=P:problem=brak caudy	!	!	!	!	!	!	!	!
.	.	.	.	.	.	.	.	.	.	.	.	.	4f	4B-\	.	.	.	.	.	.	.
=49	=49	=49	=49	=49	=49	=49	=49	=49	=49	=49	=49	=49	=49	=49	=49	=49	=49	=49	=49	=49	=49
!	!	!	!	!	!	!	!	!	!	!	!	!	!LO:TX:a:t=P:problem=brak caudy	!	!	!	!	!	!	!	!
1r	.	1r	.	.	1r	.	.	1r	.	.	1r	.	4g	4e-\	.	1r	.	1r	.	1r	.
.	.	.	.	.	.	.	.	.	.	.	.	.	4f\	4B-\	.	.	.	.	.	.	.
!	!	!	!	!	!	!	!	!	!	!	!	!	!LO:TX:a:t=P:problem=brak caudy	!	!	!	!	!	!	!	!
.	.	.	.	.	.	.	.	.	.	.	.	.	4e-	4G\	.	.	.	.	.	.	.
!	!	!	!	!	!	!	!	!	!	!	!	!	!LO:TX:a:t=P:problem=brak caudy	!	!	!	!	!	!	!	!
.	.	.	.	.	.	.	.	.	.	.	.	.	4f	4B-\	.	.	.	.	.	.	.
=50	=50	=50	=50	=50	=50	=50	=50	=50	=50	=50	=50	=50	=50	=50	=50	=50	=50	=50	=50	=50	=50
1r	.	1r	.	.	1r	.	.	(>4B-\	Et	.	1r	.	2e-\	2G\	.	1r	.	1r	.	1r	.
.	.	.	.	.	.	.	.	4c\)	.	.	.	.	.	.	.	.	.	.	.	.	.
.	.	.	.	.	.	.	.	4d\	pro-	.	.	.	2r	2r	.	.	.	.	.	.	.
.	.	.	.	.	.	.	.	4e-\	-pter	.	.	.	.	.	.	.	.	.	.	.	.
=51	=51	=51	=51	=51	=51	=51	=51	=51	=51	=51	=51	=51	=51	=51	=51	=51	=51	=51	=51	=51	=51
!LO:TX:a:t=P:problem=pod kreską taktową dopisany duży znak +	!	!	!	!	!	!	!	!	!	!	!	!	!	!	!	!	!	!	!	!LO:TX:a:t=P:problem=nad kreską taktową dopisany duży znak +	!
1r	.	1r	.	.	1r	.	.	2.B-\	le-	.	1r	.	1r	1r	.	1r	.	4r	.	4r	.
.	.	.	.	.	.	.	.	.	.	.	.	.	.	.	.	.	.	(>4E-\	.	(>4G\	.
.	.	.	.	.	.	.	.	.	.	.	.	.	.	.	.	.	.	4D\	.	4F\	.
.	.	.	.	.	.	.	.	4G/	-gem	.	.	.	.	.	.	.	.	4E-\	.	4G\	.
=52	=52	=52	=52	=52	=52	=52	=52	=52	=52	=52	=52	=52	=52	=52	=52	=52	=52	=52	=52	=52	=52
1r	.	1r	.	.	1r	.	.	4A-\	tu-	.	1r	.	1f/	1B-/	.	1r	.	4D\)	.	4F\)	.
.	.	.	.	.	.	.	.	8A-\	-am	.	.	.	.	.	.	.	.	4BB-\	.	4r	.
.	.	.	.	.	.	.	.	8G\	.	.	.	.	.	.	.	.	.	.	.	.	.
.	.	.	.	.	.	.	.	8F\L	sus-	.	.	.	.	.	.	.	.	4D\	.	4A-\	.
.	.	.	.	.	.	.	.	8G\J	.	.	.	.	.	.	.	.	.	.	.	.	.
.	.	.	.	.	.	.	.	8A-\L	.	.	.	.	.	.	.	.	.	4BB-\	.	4r	.
.	.	.	.	.	.	.	.	16c\L	-ti	.	.	.	.	.	.	.	.	.	.	.	.
.	.	.	.	.	.	.	.	16B-\JJ	-nui	.	.	.	.	.	.	.	.	.	.	.	.
=53	=53	=53	=53	=53	=53	=53	=53	=53	=53	=53	=53	=53	=53	=53	=53	=53	=53	=53	=53	=53	=53
1r	.	(>4E-\	Et	.	(>4G\	Et	.	2B-\	te	.	1r	.	4e-\	4G\	.	1r	.	4E-\	.	(>4G\	.
.	.	4F\)	.	.	4A-\)	.	.	.	.	.	.	.	4r	4r	.	.	.	4F\	.	4A-\	.
.	.	4G\	pro-	.	4B-\	pro-	.	2r	.	.	.	.	2r	2r	.	.	.	4G\	.	4B-\	.
.	.	4A-\	-pter	.	4c\	.	.	.	.	.	.	.	.	.	.	.	.	4A-\	.	4c\)	.
=54	=54	=54	=54	=54	=54	=54	=54	=54	=54	=54	=54	=54	=54	=54	=54	=54	=54	=54	=54	=54	=54
!	!	!	!	!	!	!	!	!	!	!	!	!	!	!	!	!	!	!	!	!LO:TX:a:t=P:problem=dziwny łuk nad nutą	!
4BB-\	.	2.F\	le-	.	2.A-\	-pter	.	2r	.	.	1r	.	1r	1r	.	1r	.	2.F\	.	2.A-\	.
4C\	.	.	.	.	.	.	.	.	.	.	.	.	.	.	.	.	.	.	.	.	.
4D\	.	.	.	.	.	.	.	4r	.	.	.	.	.	.	.	.	.	.	.	.	.
4E-\	.	4E-\	-gem	.	4G\	legem	.	4e-\	et	.	.	.	.	.	.	.	.	4E-\	.	4G\	.
=55	=55	=55	=55	=55	=55	=55	=55	=55	=55	=55	=55	=55	=55	=55	=55	=55	=55	=55	=55	=55	=55
2.C/	.	(<2.C/	tu-	.	1G/	tu-	.	2.e-\	pro-	.	1r	.	1r	1r	.	1r	.	1G\	.	2.e-\	.
!	!	!	!	!	!	!	!	!	!	!	!	!	!	!	!	!	!	!	!	!LO:TX:a:t=P:problem=zamazany inny dźwięk	!
4BB-/	.	4BB-/)	.	.	.	.	.	4d\	-pter	.	.	.	.	.	.	.	.	.	.	4d\	.
=56	=56	=56	=56	=56	=56	=56	=56	=56	=56	=56	=56	=56	=56	=56	=56	=56	=56	=56	=56	=56	=56
!	!	!	!	!	!LO:TX:a:t=P:problem=G przeprawione na A-	!	!	!	!	!	!	!	!	!	!	!	!	!	!	!	!
2AA-/	.	2AA-/	-am	.	2G/	-am	.	(>4c\	le-	.	1r	.	1r	1r	.	1r	.	2.A-\	.	(>4c\	.
.	.	.	.	.	.	.	.	4d\)	-gem	.	.	.	.	.	.	.	.	.	.	4d\	.
2AA-/	.	2AA-/	sus-	.	2c\	sus-	.	4e-\	.	.	.	.	.	.	.	.	.	.	.	4e-\	.
.	.	.	.	.	.	.	.	4f\	sus-	.	.	.	.	.	.	.	.	4A-\	.	4f\)	.
=57	=57	=57	=57	=57	=57	=57	=57	=57	=57	=57	=57	=57	=57	=57	=57	=57	=57	=57	=57	=57	=57
4BB-/	.	2BB-/	-ti-	.	2G/	-ti-	.	2e-\	-ti-	.	1r	.	2e-\	2G\	.	1r	.	4r	.	4r	.
4r	.	.	.	.	.	.	.	.	.	.	.	.	.	.	.	.	.	4G\	.	4e-\	.
!	!	!	!	!	!	!	!	!	!	!	!	!	!LO:TX:a:t=P:problem=brak caudy	!	!	!	!	!	!	!	!
4BB-/	.	4.BB-/	-nui	.	4.F/	-nu-	.	4.d\	-nui	.	.	.	2f	2B-\	.	.	.	4r	.	4r	.
4r	.	.	.	.	.	.	.	.	.	.	.	.	.	.	.	.	.	4F\	.	4d\	.
.	.	8BB-/	.	.	8F/	-i	.	8d\	.	.	.	.	.	.	.	.	.	.	.	.	.
=58	=58	=58	=58	=58	=58	=58	=58	=58	=58	=58	=58	=58	=58	=58	=58	=58	=58	=58	=58	=58	=58
!	!LO:DY:b	!	!	!	!	!	!	!	!	!	!	!	!	!	!LO:DY:a	!	!LO:DY:a	!	!	!	!LO:DY:a
4r	f	2E-\	te	.	2G/	te	.	2e-\	te	.	1r	.	4r	4r	f	4r	f	4r	.	4r	f
8.E-\L	.	.	.	.	.	.	.	.	.	.	.	.	8.g\L	8.e-\L	.	8.b-\L	.	8.B-\L	.	8.g\L	f
16E-\Jk	.	.	.	.	.	.	.	.	.	.	.	.	16g\Jk	16e-\Jk	.	16b-\Jk	.	16B-\Jk	.	16g\Jk	.
4E-\	.	2r	.	.	2r	.	.	2r	.	.	.	.	4g\	4e-\	.	4b-\	.	4B-\	.	4g\	.
4E-\	.	.	.	.	.	.	.	.	.	.	.	.	4g\	4e-\	.	4b-\	.	4B-\	.	4g\	.
=59	=59	=59	=59	=59	=59	=59	=59	=59	=59	=59	=59	=59	=59	=59	=59	=59	=59	=59	=59	=59	=59
!!LO:PB:g=original
!	!	!LO:TX:a:t=Tutti	!	!	!LO:TX:a:t=Tutti	!	!	!LO:TX:a:t=Tutti	!	!	!	!	!	!	!	!	!	!	!	!	!
1E-\	.	2.E-\	Do-	.	2.B-\	Do-	.	2.g\	Do-	.	1r	.	1g/	1e-/	.	[>1b-\	.	1B-\	.	1g\	.
.	.	4E-\	-mi-	.	4B-\	-mi-	.	4g\	-mi-	.	.	.	.	.	.	.	.	.	.	.	.
=60	=60	=60	=60	=60	=60	=60	=60	=60	=60	=60	=60	=60	=60	=60	=60	=60	=60	=60	=60	=60	=60
4E-\	.	4E-\	-ne	.	4B-\	-ne	.	4g\	-ne	.	1r	.	4g\	4e-\	.	4b-\]	.	4B-\	.	4g\	.
!	!	!	!	!	!LO:TX:a:t=mezza voce:problem=nie jestem pewna tych słów	!	!	!	!	!	!	!	!	!	!	!	!	!	!	!	!
4r	.	4r	.	.	4E-/	Sus-	.	4r	.	.	.	.	4r	4r	.	4r	.	4E-\	.	4r	.
2r	.	2r	.	.	4E-/	-ti-	.	2r	.	.	.	.	2r	2r	.	2r	.	4E-\	.	2r	.
.	.	.	.	.	8E-/	-nu-	.	.	.	.	.	.	.	.	.	.	.	4E-\	.	.	.
.	.	.	.	.	8E-/	-i	.	.	.	.	.	.	.	.	.	.	.	.	.	.	.
=61	=61	=61	=61	=61	=61	=61	=61	=61	=61	=61	=61	=61	=61	=61	=61	=61	=61	=61	=61	=61	=61
1r	.	1r	.	.	2D/	a-	.	1r	.	.	1r	.	1r	1r	.	1r	.	2D\	.	1r	.
.	.	.	.	.	4E-/	-ni-	.	.	.	.	.	.	.	.	.	.	.	4E-\	.	.	.
.	.	.	.	.	4G/	-mam	.	.	.	.	.	.	.	.	.	.	.	4G\	.	.	.
=62	=62	=62	=62	=62	=62	=62	=62	=62	=62	=62	=62	=62	=62	=62	=62	=62	=62	=62	=62	=62	=62
1r	.	1r	.	.	2B-\	me-	.	4r	.	.	1r	.	1r	1r	.	1r	.	2B-\	.	4r	.
.	.	.	.	.	.	.	.	4B-\	Sus-	.	.	.	.	.	.	.	.	.	.	4B-\	.
.	.	.	.	.	4G\	-am	.	4B-\	-ti-	.	.	.	.	.	.	.	.	4G\	.	4B-\	.
.	.	.	.	.	4G\	in	.	8B-\	-nu-	.	.	.	.	.	.	.	.	4G\	.	4B-\	.
.	.	.	.	.	.	.	.	8B-\	-i	.	.	.	.	.	.	.	.	.	.	.	.
=63	=63	=63	=63	=63	=63	=63	=63	=63	=63	=63	=63	=63	=63	=63	=63	=63	=63	=63	=63	=63	=63
!LO:TX:a:t=P:problem=pod kreską taktową dopisany duży znak +	!	!	!	!	!	!	!	!	!	!	!	!	!	!	!	!	!	!	!	!LO:TX:a:t=P:problem=nad kreską taktową dopisany duży znak +	!
1r	.	1r	.	.	2F#X/	ver-	.	2An\	a-	.	1r	.	1r	1r	.	1r	.	2F#X\	.	2An\	.
.	.	.	.	.	4G/	-bo	.	4B-\	-ni-	.	.	.	.	.	.	.	.	4G\	.	4B-\	.
.	.	.	.	.	4Fn/	.	.	4d\	-mam	.	.	.	.	.	.	.	.	4Fn\	.	4d\	.
=64	=64	=64	=64	=64	=64	=64	=64	=64	=64	=64	=64	=64	=64	=64	=64	=64	=64	=64	=64	=64	=64
4r	.	4r	.	.	2G/	e-	.	2e-\	me-	.	1r	.	1r	1r	.	1r	.	2G\	.	2e-\	.
4E-\	.	4E-\	Sus-	.	.	.	.	.	.	.	.	.	.	.	.	.	.	.	.	.	.
4E-\	.	4E-\	-ti-	.	4A-/	-jus	.	4c\	-am	.	.	.	.	.	.	.	.	4A-\	.	4c\	.
4E-\	.	8E-\	-nu-	.	[<4A-/	in	.	4c\	in	.	.	.	.	.	.	.	.	(>4A-\	.	4c\	.
.	.	8E-\	-i	.	.	.	.	.	.	.	.	.	.	.	.	.	.	.	.	.	.
=65	=65	=65	=65	=65	=65	=65	=65	=65	=65	=65	=65	=65	=65	=65	=65	=65	=65	=65	=65	=65	=65
2D\	.	2D\	a-	.	4A-/]	ver-	.	2B-\	ver-	.	1r	.	2r	2r	.	1r	.	4A-\	.	2B-\	.
.	.	.	.	.	8G/L	.	.	.	.	.	.	.	.	.	.	.	.	8G\L)	.	.	.
.	.	.	.	.	8F/J	.	.	.	.	.	.	.	.	.	.	.	.	8F\J	.	.	.
4E-\	.	4E-\	-ni-	.	4E-/	-bo	.	2g\	-bo	.	.	.	4r	4r	.	.	.	4E-\	.	2g\	.
4G\	.	4G\	-mam	.	[>4e-\	E-	.	.	.	.	.	.	4g/	[4e-/	.	.	.	[4e-\	.	.	.
=66	=66	=66	=66	=66	=66	=66	=66	=66	=66	=66	=66	=66	=66	=66	=66	=66	=66	=66	=66	=66	=66
2B-\	.	2B-\	me-	.	4e-\]	.	.	2f\	E-	.	1r	.	2f/	4e-/]	.	1r	.	4e-\]	.	2f\	.
.	.	.	.	.	4d\	.	.	.	.	.	.	.	.	4B-/	.	.	.	4d\	.	.	.
4G\	.	4G\	-am	.	4e-\	.	.	2e-\	.	.	.	.	2e-/	2e-/	.	.	.	4e-\	.	2e-\	.
4G\	.	4G\	in	.	8B-\L	.	.	.	.	.	.	.	.	.	.	.	.	8B-\L	.	.	.
.	.	.	.	.	8Bn\J	.	.	.	.	.	.	.	.	.	.	.	.	8Bn\J	.	.	.
=67	=67	=67	=67	=67	=67	=67	=67	=67	=67	=67	=67	=67	=67	=67	=67	=67	=67	=67	=67	=67	=67
2F#X\	.	2F#X\	ver-	.	2.c\	.	.	2e-\	.	.	1r	.	2e-/	2e-/	.	1r	.	2.c\	.	2e-\	.
2G\	.	2G\	-bo	.	.	.	.	2d\	.	.	.	.	2g/	2g/	.	.	.	.	.	2d\	.
.	.	.	.	.	4Bn\	.	.	.	.	.	.	.	.	.	.	.	.	4Bn\	.	.	.
=68	=68	=68	=68	=68	=68	=68	=68	=68	=68	=68	=68	=68	=68	=68	=68	=68	=68	=68	=68	=68	=68
1A-\	.	1A-\	E-	.	1c\	.	.	1c\	.	.	1r	.	4r	4r	.	1r	.	1c\	.	1c\	.
.	.	.	.	.	.	.	.	.	.	.	.	.	2e-/	2e-/	.	.	.	.	.	.	.
.	.	.	.	.	.	.	.	.	.	.	.	.	4e-/	4e-/	.	.	.	.	.	.	.
=69	=69	=69	=69	=69	=69	=69	=69	=69	=69	=69	=69	=69	=69	=69	=69	=69	=69	=69	=69	=69	=69
4A-\	.	4A-\	-jus	.	4c\	-jus	.	4c\	-jus	.	1r	.	4e-/	4e-/	.	1r	.	4c\	.	4c\	.
4A-\	.	4A-\	Spe-	.	4c\	Spe-	.	4e-\	Spe-	.	.	.	4e-/	4e-/	.	.	.	4c\	.	4e-\	.
4A-\	.	4A-\	-ra-	.	4c\	-ra-	.	4e-\	-ra-	.	.	.	4e-/	4e-/	.	.	.	4c\	.	4e-\	.
4A-\	.	4A-\	-vit	.	4c\	-vit	.	4e-\	-vit	.	.	.	4e-/	4e-/	.	.	.	4c\	.	[>4e-\	.
=70	=70	=70	=70	=70	=70	=70	=70	=70	=70	=70	=70	=70	=70	=70	=70	=70	=70	=70	=70	=70	=70
2A-\	.	2A-\	ani-	.	(>4c\	a-	.	(>4e-\	a-	.	1r	.	2e-/	2e-/	.	1r	.	4c\	.	4e-\]	.
.	.	.	.	.	4A-\)	-ni	.	4c\	-ni-	.	.	.	.	.	.	.	.	4A-\	.	4c\	.
4A-\	.	4A-\	-ma	.	(>4B-\	-ma	.	4d-X\)	-ma	.	.	.	2r	2r	.	.	.	4B-\	.	4d-X\	.
4G-X\	.	4G-X\	.	.	4c\)	.	.	4e-\	.	.	.	.	.	.	.	.	.	4c\	.	4e-\	.
=71	=71	=71	=71	=71	=71	=71	=71	=71	=71	=71	=71	=71	=71	=71	=71	=71	=71	=71	=71	=71	=71
2F\	.	2F\	mea	.	2A-\	mea	.	2d-X\	mea	.	1r	.	2.f/	2.d-X/^	.	1r	.	2A-\	.	2d-X\	.
4F\	.	4F\	.	.	4A-\	.	.	4d-\	.	.	.	.	.	.	.	.	.	4A-\	.	4d-\	.
4F\	.	4F\	in	.	4A-\	in	.	4d-\	in	.	.	.	4r	4r	.	.	.	4A-\	.	4d-\	.
=72	=72	=72	=72	=72	=72	=72	=72	=72	=72	=72	=72	=72	=72	=72	=72	=72	=72	=72	=72	=72	=72
!!LO:PB:g=original
2.G-X\	.	2.G-X\	Do-	.	2.B-\	Do-	.	2.d-X\	Do-	.	1r	.	2.B-/	2.B-\	.	1r	.	2.B-\	.	2.d-X\	.
4G-\	.	4G-\	-mi-	.	4B-\	-mi-	.	4d-\	-mi-	.	.	.	4B-/	4B-\	.	.	.	4B-\	.	4d-\	.
=73	=73	=73	=73	=73	=73	=73	=73	=73	=73	=73	=73	=73	=73	=73	=73	=73	=73	=73	=73	=73	=73
4G-X\	.	2G-X\	-no	.	2B-\	-no	.	2d-X\	-no	.	1r	.	4B-/	4B-\	.	1r	.	4B-\	.	4d-X\	.
8.G-\L	.	.	.	.	.	.	.	.	.	.	.	.	8.g-\L	8.g-\L	.	.	.	8.B-\L	.	8.d-\L	.
16G-\Jk	.	.	.	.	.	.	.	.	.	.	.	.	16g-\Jk	16g-\Jk	.	.	.	16B-\Jk	.	16d-\Jk	.
4G-\	.	2r	.	.	2r	.	.	2r	.	.	.	.	4g-\	4g-\	.	.	.	4B-\	.	4d-\	.
4F\	.	.	.	.	.	.	.	.	.	.	.	.	4r	4r	.	.	.	4B-\	.	4d-\	.
=74	=74	=74	=74	=74	=74	=74	=74	=74	=74	=74	=74	=74	=74	=74	=74	=74	=74	=74	=74	=74	=74
2En\	.	1r	.	.	1r	.	.	1r	.	.	1r	.	2gn\	2gn\	.	2r	.	2B-\	.	2d-X\	.
!	!	!	!	!	!	!	!	!	!	!	!	!	!LO:TX:a:t=P:problem=brak caudy	!	!	!	!	!	!	!	!
2F\	.	.	.	.	.	.	.	.	.	.	.	.	2a-	2f\	.	4r	.	2A-\	.	2c\	.
.	.	.	.	.	.	.	.	.	.	.	.	.	.	.	.	8.c/L	.	.	.	.	.
.	.	.	.	.	.	.	.	.	.	.	.	.	.	.	.	16c/Jk	.	.	.	.	.
=75	=75	=75	=75	=75	=75	=75	=75	=75	=75	=75	=75	=75	=75	=75	=75	=75	=75	=75	=75	=75	=75
!LO:TX:a:t=P:problem=diminuendolike accent	!	!	!	!	!	!	!	!	!	!	!	!	!	!LO:TX:a:t=P:problem=diminuendolike accent	!	!	!	!LO:TX:a:t=P:problem=diminuendolike accent	!	!LO:TX:a:t=P:problem=diminuendolike accent	!
1C\^	.	1r	.	.	1r	.	.	1r	.	.	16C/LL	.	1g/^	1ryy	.	1c/	.	1G\^	.	1en\^	.
.	.	.	.	.	.	.	.	.	.	.	16C/	.	.	.	.	.	.	.	.	.	.
.	.	.	.	.	.	.	.	.	.	.	16C/	.	.	.	.	.	.	.	.	.	.
.	.	.	.	.	.	.	.	.	.	.	16C/JJ	.	.	.	.	.	.	.	.	.	.
.	.	.	.	.	.	.	.	.	.	.	8C/	.	.	.	.	.	.	.	.	.	.
.	.	.	.	.	.	.	.	.	.	.	8r	.	.	.	.	.	.	.	.	.	.
.	.	.	.	.	.	.	.	.	.	.	2r	.	.	.	.	.	.	.	.	.	.
=76	=76	=76	=76	=76	=76	=76	=76	=76	=76	=76	=76	=76	=76	=76	=76	=76	=76	=76	=76	=76	=76
!LO:TX:a:t=P:problem=pod kreską taktową dopisany duży znak +	!	!	!	!	!	!	!	!	!	!	!	!	!	!	!	!	!	!	!	!LO:TX:a:t=P:problem=nad kreską taktową dopisany duży znak +	!
2c\	.	2c\	A	.	1r	.	.	1r	.	.	1r	.	1r	1r	.	1r	.	1r	.	1r	.
2B-\	.	2B-\	Cus-	.	.	.	.	.	.	.	.	.	.	.	.	.	.	.	.	.	.
=77	=77	=77	=77	=77	=77	=77	=77	=77	=77	=77	=77	=77	=77	=77	=77	=77	=77	=77	=77	=77	=77
4.A-\	.	4.A-\	-to-	.	2c\	A	.	1r	.	.	1r	.	1r	1r	.	1r	.	2c\	.	1r	.
8F\	.	8F\	-di-	.	.	.	.	.	.	.	.	.	.	.	.	.	.	.	.	.	.
2G\	.	2G\	-a	.	2B-\	Cus-	.	.	.	.	.	.	.	.	.	.	.	2B-\	.	.	.
=78	=78	=78	=78	=78	=78	=78	=78	=78	=78	=78	=78	=78	=78	=78	=78	=78	=78	=78	=78	=78	=78
2.C\	.	2.C/	ma-	.	4.A-\	-to-	.	2c\	A	.	1r	.	1r	1r	.	1r	.	4.A-\	.	2c\	.
.	.	.	.	.	8F\	-di-	.	.	.	.	.	.	.	.	.	.	.	8F\	.	.	.
.	.	.	.	.	2G\	-a	.	2B-\	Cus-	.	.	.	.	.	.	.	.	2G\	.	2B-\	.
8D\L	.	8D/L	-tu-	.	.	.	.	.	.	.	.	.	.	.	.	.	.	.	.	.	.
8En\J	.	8En/J	.	.	.	.	.	.	.	.	.	.	.	.	.	.	.	.	.	.	.
=79	=79	=79	=79	=79	=79	=79	=79	=79	=79	=79	=79	=79	=79	=79	=79	=79	=79	=79	=79	=79	=79
2F\	.	2F\	-ti-	.	2A-\	ma-	.	4.A-\	-to-	.	1r	.	1r	1r	.	1r	.	2A-\	.	4.A-\	.
.	.	.	.	.	.	.	.	8F\	-dia	.	.	.	.	.	.	.	.	.	.	8F\	.
2BB-/	.	2BB-/	-na	.	2B-\	-tu-	.	4G\	.	.	.	.	.	.	.	.	.	(>2B-\	.	4G\	.
.	.	.	.	.	.	.	.	(>4d-X\	ma-	.	.	.	.	.	.	.	.	.	.	(>4d-X\	.
=80	=80	=80	=80	=80	=80	=80	=80	=80	=80	=80	=80	=80	=80	=80	=80	=80	=80	=80	=80	=80	=80
2C/	.	2C/	us-	.	(>4B-\	-ti-	.	2c\	-tu-	.	1r	.	1r	1r	.	1r	.	4B-\	.	2c\	.
.	.	.	.	.	4A-\)	.	.	.	.	.	.	.	.	.	.	.	.	4A-\)	.	.	.
!	!	!	!	!	!	!	!	!	!	!	!	!	!	!LO:TX:a:t=Solo	!	!	!	!	!	!	!
4C/	.	4C/	-que	.	4G\	-na	.	4B-\)	-ti-	.	.	.	.	.	.	.	.	4G\	.	4B-\	.
4D-X/	.	4D-X/	ad	.	4F\	.	.	4A-\	.	.	.	.	.	.	.	.	.	4F\	.	4A-\)	.
=81	=81	=81	=81	=81	=81	=81	=81	=81	=81	=81	=81	=81	=81	=81	=81	=81	=81	=81	=81	=81	=81
!	!	!	!	!	!	!	!	!	!	!	!	!	!LO:TX:a:t=P:problem=diminuendolike accent	!	!	!	!	!	!	!	!
1C/	.	1C/	noc-	.	2E-/	us-	.	4A-\	-na	.	1r	.	1g-X/^	1r	.	1r	.	(>1E-\	.	[1A-\	.
.	.	.	.	.	.	.	.	4A-\	.	.	.	.	.	.	.	.	.	.	.	.	.
.	.	.	.	.	4E-/	-que	.	4A-\	us-	.	.	.	.	.	.	.	.	.	.	.	.
.	.	.	.	.	4E-/	ad	.	8A-\	-que	.	.	.	.	.	.	.	.	.	.	.	.
.	.	.	.	.	.	.	.	8A-\	ad	.	.	.	.	.	.	.	.	.	.	.	.
=82	=82	=82	=82	=82	=82	=82	=82	=82	=82	=82	=82	=82	=82	=82	=82	=82	=82	=82	=82	=82	=82
2.D-X\	.	2.D-X\	.	.	1F/	noctem	.	(>1A-\	noc-	.	1r	.	(>2.f\	1r	.	1r	.	1F\)	.	1A-\]	.
4C\	.	4C\	.	.	.	.	.	.	.	.	.	.	4e-\	.	.	.	.	.	.	.	.
=83	=83	=83	=83	=83	=83	=83	=83	=83	=83	=83	=83	=83	=83	=83	=83	=83	=83	=83	=83	=83	=83
2BBn\	.	2BBn/	-tem	.	2F/	.	.	2G\)	-tem	.	1r	.	2d\)	2r	.	1r	.	2F\	.	2G\	.
4BB\	.	4BB/	Spe-	.	4F/	Spe-	.	4d\	Spe-	.	.	.	4g\	4G\	.	.	.	4G\	.	4d\	.
4BB\	.	4BB/	-ret	.	4G/	-ret	.	4d\	-ret	.	.	.	4g/	4G\	.	.	.	4G\	.	4d\	.
=84	=84	=84	=84	=84	=84	=84	=84	=84	=84	=84	=84	=84	=84	=84	=84	=84	=84	=84	=84	=84	=84
!!LO:PB:g=original
2.C/	.	2.C/	Is-	.	2.G/	Isra-	.	2.e-\	Isra-	.	1r	.	2.g/	2.G\	.	1r	.	(>1G\	.	2.e-\	.
4BB-X/	.	4BB-X/	-ra-	.	4G/	-el	.	4d\	-el	.	.	.	4r	4r	.	.	.	.	.	4d\	.
=85	=85	=85	=85	=85	=85	=85	=85	=85	=85	=85	=85	=85	=85	=85	=85	=85	=85	=85	=85	=85	=85
1AA-/	.	4AA-/	-el	.	4G/	in	.	4c\	in	.	4r	.	1r	1r	.	4r	.	2G\	.	1c\	.
.	.	4AA-/	in	.	4G/	Do-	.	4c\	.	.	8.C/L	.	.	.	.	8.c/L	.	.	.	.	.
.	.	.	.	.	.	.	.	.	.	.	16C/Jk	.	.	.	.	16c/Jk	.	.	.	.	.
.	.	4AA-/	Do-	.	4F#X/	-mi	.	4c\	Do-	.	4C/	.	.	.	.	4c/	.	2F#X\)	.	.	.
.	.	4AA-/	-mi-	.	4F#/	-no	.	4c\	-mino	.	4C/	.	.	.	.	4c/	.	.	.	.	.
=86	=86	=86	=86	=86	=86	=86	=86	=86	=86	=86	=86	=86	=86	=86	=86	=86	=86	=86	=86	=86	=86
2GG/	.	2GG/	-no	.	2G/	.	.	2Bn\	.	.	16GG/LL	.	1g/	1ryy	.	4G/	.	2G\	.	2Bn\	.
.	.	.	.	.	.	.	.	.	.	.	16GG/	.	.	.	.	.	.	.	.	.	.
.	.	.	.	.	.	.	.	.	.	.	16GG/	.	.	.	.	.	.	.	.	.	.
.	.	.	.	.	.	.	.	.	.	.	16GG/	.	.	.	.	.	.	.	.	.	.
.	.	.	.	.	.	.	.	.	.	.	16GG/	.	.	.	.	4r	.	.	.	.	.
.	.	.	.	.	.	.	.	.	.	.	16GG/	.	.	.	.	.	.	.	.	.	.
.	.	.	.	.	.	.	.	.	.	.	16GG/	.	.	.	.	.	.	.	.	.	.
.	.	.	.	.	.	.	.	.	.	.	16GG/	.	.	.	.	.	.	.	.	.	.
[2G\	.	[2G\	Spe-	.	(<2G/	Spe-	.	[2B\	Spe-	.	16GG/	.	.	.	.	2r	.	2G\	.	(>2B\	.
.	.	.	.	.	.	.	.	.	.	.	16GG/	.	.	.	.	.	.	.	.	.	.
.	.	.	.	.	.	.	.	.	.	.	16GG/	.	.	.	.	.	.	.	.	.	.
.	.	.	.	.	.	.	.	.	.	.	16GG/	.	.	.	.	.	.	.	.	.	.
.	.	.	.	.	.	.	.	.	.	.	16GG/	.	.	.	.	.	.	.	.	.	.
.	.	.	.	.	.	.	.	.	.	.	16GG/	.	.	.	.	.	.	.	.	.	.
.	.	.	.	.	.	.	.	.	.	.	16GG/	.	.	.	.	.	.	.	.	.	.
.	.	.	.	.	.	.	.	.	.	.	16GG/JJ	.	.	.	.	.	.	.	.	.	.
=87	=87	=87	=87	=87	=87	=87	=87	=87	=87	=87	=87	=87	=87	=87	=87	=87	=87	=87	=87	=87	=87
!	!	!	!	!	!	!	!	!	!	!	!	!	!	!	!	!	!	!	!	!LO:SIC:s=4Bn:v	!
2G\]	.	2G\]	.	.	4G/)	-ret	.	4B\]	.	.	16GG/LL	.	1g/	1ryy	.	1r	.	(>4G\	.	4B-\	.
.	.	.	.	.	.	.	.	.	.	.	16GG/	.	.	.	.	.	.	.	.	.	.
.	.	.	.	.	.	.	.	.	.	.	16GG/	.	.	.	.	.	.	.	.	.	.
.	.	.	.	.	.	.	.	.	.	.	16GG/	.	.	.	.	.	.	.	.	.	.
.	.	.	.	.	4An\	.	.	4c\	-ret	.	16GG/	.	.	.	.	.	.	4An\	.	4c\	.
.	.	.	.	.	.	.	.	.	.	.	16GG/	.	.	.	.	.	.	.	.	.	.
.	.	.	.	.	.	.	.	.	.	.	16GG/	.	.	.	.	.	.	.	.	.	.
.	.	.	.	.	.	.	.	.	.	.	16GG/	.	.	.	.	.	.	.	.	.	.
2G\	.	2G\	-ret	.	4Bn\	Is-	.	4d\	Is-	.	16GG/	.	.	.	.	.	.	4Bn\	.	4d\	.
.	.	.	.	.	.	.	.	.	.	.	16GG/	.	.	.	.	.	.	.	.	.	.
.	.	.	.	.	.	.	.	.	.	.	16GG/	.	.	.	.	.	.	.	.	.	.
.	.	.	.	.	.	.	.	.	.	.	16GG/	.	.	.	.	.	.	.	.	.	.
.	.	.	.	.	4c\	-ra-	.	4e-\	-ra-	.	16GG/	.	.	.	.	.	.	4c\)	.	4e-\)	.
.	.	.	.	.	.	.	.	.	.	.	16GG/	.	.	.	.	.	.	.	.	.	.
.	.	.	.	.	.	.	.	.	.	.	16GG/	.	.	.	.	.	.	.	.	.	.
.	.	.	.	.	.	.	.	.	.	.	16GG/JJ	.	.	.	.	.	.	.	.	.	.
=88	=88	=88	=88	=88	=88	=88	=88	=88	=88	=88	=88	=88	=88	=88	=88	=88	=88	=88	=88	=88	=88
4G\	.	4G\	Is-	.	2Bn\	-el	.	2d\	-el	.	4GG/	.	2.g\	1ryy	.	1r	.	2Bn\	.	2d\	.
4GG/	.	4GG/	-ra-	.	.	.	.	.	.	.	4r	.	.	.	.	.	.	.	.	.	.
4G\	.	4G\	-el	.	2c\	in	.	2e-\	in	.	2r	.	.	.	.	.	.	2c\	.	2e-\	.
4F#X\	.	4F#X\	in	.	.	.	.	.	.	.	.	.	4e-\	.	.	.	.	.	.	.	.
=89	=89	=89	=89	=89	=89	=89	=89	=89	=89	=89	=89	=89	=89	=89	=89	=89	=89	=89	=89	=89	=89
!LO:TX:b:t=P:problem=pod kreską taktową dopisany duży znak +	!	!	!	!	!	!	!	!	!	!	!	!	!	!	!	!	!	!	!	!LO:TX:a:t=P:problem=nad kreską taktową dopisany duży znak +	!
2G\	.	2.G\	Do-	.	2.Bn\	Do-	.	2.d\	Do-	.	1r	.	2g\	1ryy	.	1r	.	2Bn\	.	2d\	.
2r	.	.	.	.	.	.	.	.	.	.	.	.	2r	.	.	.	.	2r	.	2r	.
.	.	4G\	-mi-	.	4B\	-mi-	.	4d\	-mi-	.	.	.	.	.	.	.	.	.	.	.	.
=90	=90	=90	=90	=90	=90	=90	=90	=90	=90	=90	=90	=90	=90	=90	=90	=90	=90	=90	=90	=90	=90
4r	.	1G\	-no	.	1Bn\	-no	.	1d\	-no	.	4r	.	4r	4r	.	4r	.	4r	.	4r	.
8.G\L	.	.	.	.	.	.	.	.	.	.	8.GG/L	.	8.g\L	8.G\L	.	8.g/L	.	8.Bn\L	.	8.d\L	.
!	!	!	!	!	!	!	!	!	!	!	!	!	!	!	!	!	!	!	!	!LO:TX:a:t=P:problem=trudno określić wysokość dźwięku	!
16G\Jk	.	.	.	.	.	.	.	.	.	.	16GG/Jk	.	16g\Jk	16G\Jk	.	16g/Jk	.	16B\Jk	.	16e-\Jk	.
4G\	.	.	.	.	.	.	.	.	.	.	4GG/	.	4g\	4G\	.	4g/	.	4B\	.	4d\	.
4G\	.	.	.	.	.	.	.	.	.	.	4GG/	.	4g\	4G\	.	4g/	.	4B\	.	4d\	.
=91	=91	=91	=91	=91	=91	=91	=91	=91	=91	=91	=91	=91	=91	=91	=91	=91	=91	=91	=91	=91	=91
!LO:TX:b:t=P:problem=diminuendolike accent	!	!	!	!	!	!	!	!	!	!	!	!	!LO:TX:b:t=P:problem=diminuendolike accent	!LO:TX:a:t=P:problem=diminuendolike accent	!	!LO:TX:a:t=P:problem=diminuendolike accent	!	!LO:TX:a:t=P:problem=diminuendolike accent	!	!LO:TX:a:t=P:problem=diminuendolike accent	!
1G\^	.	1r	.	.	1r	.	.	1r	.	.	16GG/LL	.	1g/^	1G/^	.	1g\^	.	1Bn\^	.	2d\^	.
.	.	.	.	.	.	.	.	.	.	.	16GG/	.	.	.	.	.	.	.	.	.	.
.	.	.	.	.	.	.	.	.	.	.	16GG/	.	.	.	.	.	.	.	.	.	.
.	.	.	.	.	.	.	.	.	.	.	16GG/	.	.	.	.	.	.	.	.	.	.
.	.	.	.	.	.	.	.	.	.	.	16GG/	.	.	.	.	.	.	.	.	.	.
.	.	.	.	.	.	.	.	.	.	.	16GG/	.	.	.	.	.	.	.	.	.	.
.	.	.	.	.	.	.	.	.	.	.	16GG/	.	.	.	.	.	.	.	.	.	.
.	.	.	.	.	.	.	.	.	.	.	16GG/JJ	.	.	.	.	.	.	.	.	.	.
.	.	.	.	.	.	.	.	.	.	.	4GG/	.	.	.	.	.	.	.	.	2ryy	.
.	.	.	.	.	.	.	.	.	.	.	4r	.	.	.	.	.	.	.	.	.	.
=92	=92	=92	=92	=92	=92	=92	=92	=92	=92	=92	=92	=92	=92	=92	=92	=92	=92	=92	=92	=92	=92
1r	.	1r	.	.	1r	.	.	2G/	qui-	.	1r	.	1r	1r	.	1r	.	1r	.	1r	.
.	.	.	.	.	.	.	.	2G/	-a	.	.	.	.	.	.	.	.	.	.	.	.
=93	=93	=93	=93	=93	=93	=93	=93	=93	=93	=93	=93	=93	=93	=93	=93	=93	=93	=93	=93	=93	=93
!	!	!	!	!	!LO:TX:a:t=P:problem=zamazane nuty na górze	!	!	!	!	!	!	!	!	!	!	!	!	!	!	!	!
1r	.	1r	.	.	2E-\	qui-	.	1G/	A-	.	1r	.	1r	1r	.	1r	.	1r	.	1r	.
.	.	.	.	.	2E-\	-a	.	.	.	.	.	.	.	.	.	.	.	.	.	.	.
=94	=94	=94	=94	=94	=94	=94	=94	=94	=94	=94	=94	=94	=94	=94	=94	=94	=94	=94	=94	=94	=94
1r	.	2C/	Qui-	.	1E-/	apud	.	1G/	-pud	.	1r	.	1r	1r	.	1r	.	1r	.	1r	.
.	.	2C/	-a	.	.	.	.	.	.	.	.	.	.	.	.	.	.	.	.	.	.
=95	=95	=95	=95	=95	=95	=95	=95	=95	=95	=95	=95	=95	=95	=95	=95	=95	=95	=95	=95	=95	=95
*	*	*	*	*	*^	*	*	*	*	*	*	*	*	*	*	*	*	*	*	*	*
2r	.	2C/	a-	.	2E-/	2ryy	.	<	1c\	Do-	.	1r	.	2r	2r	.	1r	.	2r	.	2r	.
!LO:TX:b:t=P:problem=diminuendolike accent	!	!	!	!	!	!LO:TX:a:t=P:problem=widać jeszcze coś na kształt 2 nad kasownikiem	!	!	!	!	!	!	!	!	!	!	!	!	!	!	!LO:TX:b:t=P:problem=diminuendolike accent	!
(<2BB-/^	.	2BB-/	-pud	.	2En/	2G\	Do-	[	.	.	.	.	.	2g/	2g\	.	.	.	(>2En\	.	[2c\^<	.
*	*	*	*	*	*v	*v	*	*	*	*	*	*	*	*	*	*	*	*	*	*	*	*
=96	=96	=96	=96	=96	=96	=96	=96	=96	=96	=96	=96	=96	=96	=96	=96	=96	=96	=96	=96	=96	=96
4AA-/)	.	4.AA-/	Do-	.	4.F/	-mi-	.	4.c\	-mi-	.	1r	.	4a-/	4f\	.	1r	.	4F\)	.	4c\]	.
4r	.	.	.	.	.	.	.	.	.	.	.	.	4r	4r	.	.	.	4r	.	4r	.
.	.	8AA-/	-mi-	.	8F/	-num	.	8c\	-num	.	.	.	.	.	.	.	.	.	.	.	.
2r	.	4AA-/	-num	.	4F/	.	.	4c\	.	.	.	.	2r	2r	.	.	.	2r	.	2r	.
.	.	4AA-/	mi-	.	4F#X/	mi-	.	4c\	mi-	.	.	.	.	.	.	.	.	.	.	.	.
=97	=97	=97	=97	=97	=97	=97	=97	=97	=97	=97	=97	=97	=97	=97	=97	=97	=97	=97	=97	=97	=97
!	!	!	!	!	!	!	!	!	!	!	!	!	!	!	!	!	!	!	!	!	!LO:DY:rj
4GG/	.	2GG/	-ſe-	.	2G\	-ſeri	.	2e-\	-ſeri-	.	1r	.	4r	4r	.	1r	.	4r	.	4r	p
4r	.	.	.	.	.	.	.	.	.	.	.	.	4g\	4g\	.	.	.	4c\	.	4e-\	.
4G\	.	(>4G\	-ri-	.	2Bn\	.	.	2d\	.	.	.	.	4r	4r	.	.	.	4r	.	4r	.
!	!	!LO:TX:a:t=P:problem=niejednoznaczne zakończenie łuku	!	!	!	!	!	!	!	!	!	!	!	!	!	!	!	!	!	!	!
4r	.	4F\)	.	.	.	.	.	.	.	.	.	.	4g\	4g\	.	.	.	4Bn\	.	4d\	.
=98	=98	=98	=98	=98	=98	=98	=98	=98	=98	=98	=98	=98	=98	=98	=98	=98	=98	=98	=98	=98	=98
!!LO:PB:g=original
!	!	!	!	!	!	!	!	!LO:TX:a:t=P:problem=niejednoznaczny początek łuku	!	!	!	!	!	!	!	!	!	!	!	!LO:TX:a:t=P:problem=niejednoznaczny początek łuku	!
2.E-\	.	4.E-\	-cor-	.	4.c\	-cor-	.	(>4.g\	-cor-	.	1r	.	2.g\	2.e-\	.	1r	.	2.c\	.	(>4.g\	.
.	.	8E-\	-di-	.	8c\	-di-	.	8e-\)	-di-	.	.	.	.	.	.	.	.	.	.	8e-\)	.
.	.	4E-\	-a,	.	4G/	-a	.	4c\	-a	.	.	.	.	.	.	.	.	.	.	4c\	.
4r	.	4r	.	.	4r	.	.	4G/	et	.	.	.	4r	4r	.	.	.	4r	.	4G\	.
=99	=99	=99	=99	=99	=99	=99	=99	=99	=99	=99	=99	=99	=99	=99	=99	=99	=99	=99	=99	=99	=99
1r	.	1r	.	.	2r	.	.	2G/	co-	.	1r	.	1r	1r	.	1r	.	2r	.	2G\	.
.	.	.	.	.	4r	.	.	2G/	-pi-	.	.	.	.	.	.	.	.	4r	.	2G\	.
.	.	.	.	.	4E-/	et	.	.	.	.	.	.	.	.	.	.	.	4E-\	.	.	.
=100	=100	=100	=100	=100	=100	=100	=100	=100	=100	=100	=100	=100	=100	=100	=100	=100	=100	=100	=100	=100	=100
2r	.	2r	.	.	2E-/	co-	.	1G/	-o-	.	1r	.	1r	1r	.	1r	.	2E-\	.	1G\	.
4r	.	4r	.	.	2E-/	-pi-	.	.	.	.	.	.	.	.	.	.	.	2E-\	.	.	.
4C/	.	4C/	et	.	.	.	.	.	.	.	.	.	.	.	.	.	.	.	.	.	.
=101	=101	=101	=101	=101	=101	=101	=101	=101	=101	=101	=101	=101	=101	=101	=101	=101	=101	=101	=101	=101	=101
!LO:TX:a:t=P:problem=pod fermatą dopisany duży znak +	!	!	!	!	!	!	!	!	!	!	!	!	!	!	!	!	!	!	!	!LO:TX:a:t=P:problem=nad fermatą dopisany duży znak +	!
2C/	.	2C/	co-	.	1E-/	-o-	.	1G/	-ſa	.	1r	.	1r	1r	.	1r	.	1E-\	.	1G\	.
2C/	.	2C/	-pi-	.	.	.	.	.	.	.	.	.	.	.	.	.	.	.	.	.	.
=102	=102	=102	=102	=102	=102	=102	=102	=102	=102	=102	=102	=102	=102	=102	=102	=102	=102	=102	=102	=102	=102
2C/	.	2C/	-o-	.	2E-/	-ſa	.	(>1c\	a-	.	2r	.	2r	2r	.	2r	.	2E-\	.	1c\	.
!	!	!	!	!	!	!	!	!	!	!	!	!	!	!	!	!	!	!LO:TX:a:t=P:problem=diminuendolike accent i to w drugą stronę	!	!	!
2BB-/	.	2BB-/	-ſa	.	(<2En\ 2G\	a-	.	.	.	.	16C/LL	.	2g\	2g\	.	2c/	.	2En\^	.	.	.
.	.	.	.	.	.	.	.	.	.	.	16C/	.	.	.	.	.	.	.	.	.	.
.	.	.	.	.	.	.	.	.	.	.	16C/	.	.	.	.	.	.	.	.	.	.
.	.	.	.	.	.	.	.	.	.	.	16C/	.	.	.	.	.	.	.	.	.	.
.	.	.	.	.	.	.	.	.	.	.	16C/	.	.	.	.	.	.	.	.	.	.
.	.	.	.	.	.	.	.	.	.	.	16C/	.	.	.	.	.	.	.	.	.	.
.	.	.	.	.	.	.	.	.	.	.	16C/	.	.	.	.	.	.	.	.	.	.
.	.	.	.	.	.	.	.	.	.	.	16C/JJ	.	.	.	.	.	.	.	.	.	.
=103	=103	=103	=103	=103	=103	=103	=103	=103	=103	=103	=103	=103	=103	=103	=103	=103	=103	=103	=103	=103	=103
4.AA-/	.	4.AA-/	a-	.	4.F/)	.	.	4.c\	-pud	.	4C/	.	4a-\	4f\	.	4c/	.	4.F\	.	4.c\	.
.	.	.	.	.	.	.	.	.	.	.	4r	.	4r	4r	.	4r	.	.	.	.	.
8AA-/	.	8AA-/	-pud	.	8F/	-pud	.	8c\)	.	.	.	.	.	.	.	.	.	8F\	.	8c\	.
4AA-/	.	4AA-/	e-	.	4F/	e-	.	4c\	e-	.	4r	.	4r	4r	.	4r	.	4F\	.	4c\	.
4AA-/	.	4AA-/	-um	.	4F#X/	-um	.	4c\	-um	.	8.C/L	.	8.e-\L	8.e-\L	.	8.c/L	.	4F#X\	.	4c\	.
.	.	.	.	.	.	.	.	.	.	.	16C/Jk	.	16e-\Jk	16e-\Jk	.	16c/Jk	.	.	.	.	.
=104	=104	=104	=104	=104	=104	=104	=104	=104	=104	=104	=104	=104	=104	=104	=104	=104	=104	=104	=104	=104	=104
2GG/	.	2GG/	Re-	.	(>2G\	Re-	.	2e-\	re-	.	4GG/	.	2e-\	2e-\	.	4c/	.	2G\	.	2e-\	.
.	.	.	.	.	.	.	.	.	.	.	4r	.	.	.	.	4r	.	.	.	.	.
4G\	.	(>4G\	.	.	2Bn\)	.	.	2d\	.	.	4GG/	.	2g/	2g\	.	4r	.	2Bn\	.	2d\	.
4F\	.	4F\)	.	.	.	.	.	.	.	.	4r	.	.	.	.	8.g/L	.	.	.	.	.
.	.	.	.	.	.	.	.	.	.	.	.	.	.	.	.	16g/Jk	.	.	.	.	.
=105	=105	=105	=105	=105	=105	=105	=105	=105	=105	=105	=105	=105	=105	=105	=105	=105	=105	=105	=105	=105	=105
4.E-\	.	4.E-\	-demp-	.	4.c\	-demp-	.	(>4.g\	-demp-	.	16C/LL	.	2.g/	2.e-\	.	2.g/	.	2c\	.	4.g\	.
.	.	.	.	.	.	.	.	.	.	.	16C/	.	.	.	.	.	.	.	.	.	.
.	.	.	.	.	.	.	.	.	.	.	16C/	.	.	.	.	.	.	.	.	.	.
.	.	.	.	.	.	.	.	.	.	.	16C/JJ	.	.	.	.	.	.	.	.	.	.
.	.	.	.	.	.	.	.	.	.	.	8C/	.	.	.	.	.	.	.	.	.	.
8E-\	.	8E-\	-ti-	.	8c\	-ti-	.	8e-\)	-ti-	.	8r	.	.	.	.	.	.	.	.	8e-\	.
4E-\	.	4E-\	-o	.	4c\	-o	.	4c\	-o,	.	2r	.	.	.	.	.	.	4G\	.	4c\	.
4r	.	4c\ 4C\	et	.	4c\	et	.	4c\	et	.	.	.	4r	4r	.	4r	.	4r	.	4r	.
=106	=106	=106	=106	=106	=106	=106	=106	=106	=106	=106	=106	=106	=106	=106	=106	=106	=106	=106	=106	=106	=106
!	!	!	!	!	!	!	!	!LO:TX:a:t=dolce	!	!	!	!	!	!	!	!	!	!	!	!	!LO:DY:a:rj
[1AA-/	.	2e-\ 2E-\	ip-	.	2e-\	ip-	.	2e-\	ipſe-	.	1r	.	1e-/	1e-yy	.	1r	.	1A-\	.	1c\	p
.	.	2c\ 2C\	-ſe	.	2c\	-ſe	.	2c\	re-	.	.	.	.	.	.	.	.	.	.	.	.
=107	=107	=107	=107	=107	=107	=107	=107	=107	=107	=107	=107	=107	=107	=107	=107	=107	=107	=107	=107	=107	=107
1AA-/_	.	2e-\ 2E-\	re-	.	2e-\	re-	.	2e-\	-de-	.	1r	.	1e-/	1e-yy	.	1r	.	1A-\	.	1c\	.
.	.	4c\ 4C\	-de-	.	4c\	-de-	.	4c\	-met	.	.	.	.	.	.	.	.	.	.	.	.
.	.	4A-\ 4AA-\	-met	.	4A-\	-met	.	4A-\	.	.	.	.	.	.	.	.	.	.	.	.	.
=108	=108	=108	=108	=108	=108	=108	=108	=108	=108	=108	=108	=108	=108	=108	=108	=108	=108	=108	=108	=108	=108
!	!	!	!	!	!	!	!	!	!	!LO:HP:a	!	!	!	!	!	!	!	!	!	!	!
1AA-/]	.	2A-/ 2AA-/	Is-	.	2F/	Is-	.	2.d-X\	Isra-	<	1r	.	2.f\	2.f\	.	1r	.	2F\	.	2.c-X\	.
!	!	!	!	!	!	!	!	!	!	!	!	!	!	!	!	!	!	!	!	!	!LO:HP:a
.	.	.	.	.	.	.	.	.	.	.	.	.	.	.	.	.	.	.	.	.	<
.	.	2AA-/	-ra-	.	2G/	-ra-	.	.	.	.	.	.	.	.	.	.	.	2G\	.	.	.
.	.	.	.	.	.	.	.	4d-\	.	.	.	.	4e-\	4e-\	.	.	.	.	.	4B-\	.
=109	=109	=109	=109	=109	=109	=109	=109	=109	=109	=109	=109	=109	=109	=109	=109	=109	=109	=109	=109	=109	=109
2AA-/	.	2AA-/	-el	.	2.A-\	-el	.	2.c\	-el	.	1r	.	1e-/	1e-yy	.	1r	.	1A-\	.	1c\	.
(>4A-\	.	(>4A-\	ex	.	.	.	.	.	.	.	.	.	.	.	.	.	.	.	.	.	.
4G\)	.	4G\	.	.	4A-\	ex	.	4c\	ex	[	.	.	.	.	.	.	.	.	.	.	[
=110	=110	=110	=110	=110	=110	=110	=110	=110	=110	=110	=110	=110	=110	=110	=110	=110	=110	=110	=110	=110	=110
4.F\	.	4.F\)	om-	.	4.A-\	om-	.	4.d-X\	om-	.	1r	.	4.f\	4.d-X\	.	1r	.	4.A-\	.	4.d-X\	.
8F\	.	8F\	-ni-	.	8A-\	-ni-	.	8d-\	-ni-	.	.	.	8f\	8d-\	.	.	.	8A-\	.	8d-\	.
4F\	.	4F\	-bus	.	4A-\	-bus	.	4d-\	-bus	.	.	.	4f\	4d-\	.	.	.	4A-\	.	4d-\	.
4r	.	4F\	i-	.	4A-\	i-	.	4d-\	i-	.	.	.	4r	4r	.	.	.	4r	.	4r	.
=111	=111	=111	=111	=111	=111	=111	=111	=111	=111	=111	=111	=111	=111	=111	=111	=111	=111	=111	=111	=111	=111
1r	.	2F\	-ni-	.	4A-\	-ni-	.	4d-X\	-ni-	.	1r	.	1r	1r	.	1r	.	1r	.	1r	.
.	.	.	.	.	2d-X\	.	.	2f\	.	.	.	.	.	.	.	.	.	.	.	.	.
.	.	2F\	-qui-	.	.	.	.	.	.	.	.	.	.	.	.	.	.	.	.	.	.
.	.	.	.	.	(>8e-\L	-qui-	.	(>8g\L	-qui-	.	.	.	.	.	.	.	.	.	.	.	.
!	!	!	!	!	!LO:TX:a:t=P:problem=niejednoznaczne zakończenie łuku	!	!	!LO:TX:a:t=P:problem=niejednoznaczne zakończenie łuku	!	!	!	!	!	!	!	!	!	!	!	!	!
.	.	.	.	.	8f\J)	.	.	8a-\J)	.	.	.	.	.	.	.	.	.	.	.	.	.
=112	=112	=112	=112	=112	=112	=112	=112	=112	=112	=112	=112	=112	=112	=112	=112	=112	=112	=112	=112	=112	=112
!!LO:PB:g=original
4G\	.	2G\	-ta-	.	2c\	-ta-	.	2e-\	-ta-	.	4GG/	.	4r	4r	.	4r	.	4r	.	4r	.
4r	.	.	.	.	.	.	.	.	.	.	4r	.	4g\	4g\	.	4g/	.	4c\	.	4e-\	.
4G\	.	2G\	-tes	.	2Bn\	-tes	.	2dn\	-tes	.	4GG/	.	4r	4r	.	4r	.	4r	.	4r	.
4r	.	.	.	.	.	.	.	.	.	.	4r	.	4f\	4f\	.	4g/	.	4Bn\	.	4d\	.
=113	=113	=113	=113	=113	=113	=113	=113	=113	=113	=113	=113	=113	=113	=113	=113	=113	=113	=113	=113	=113	=113
!LO:TX:a:t=P:problem=pod fermatą dopisany duży znak +	!	!	!	!	!	!	!	!	!	!	!	!	!	!	!	!	!	!	!	!LO:TX:a:t=P:problem=nad fermatą dopisany duży znak +	!
2A-\	.	2A-\	E-	.	2c\	e-	.	2c\	e-	.	16C/LL	.	1e-/	1e-yy	.	4c/	.	2c\	.	1c\	.
.	.	.	.	.	.	.	.	.	.	.	16C/	.	.	.	.	.	.	.	.	.	.
.	.	.	.	.	.	.	.	.	.	.	16C/	.	.	.	.	.	.	.	.	.	.
.	.	.	.	.	.	.	.	.	.	.	16C/JJ	.	.	.	.	.	.	.	.	.	.
.	.	.	.	.	.	.	.	.	.	.	8C/	.	.	.	.	4r	.	.	.	.	.
.	.	.	.	.	.	.	.	.	.	.	8r	.	.	.	.	.	.	.	.	.	.
4A-\	.	4A-\	-jus	.	4A-\	-jus	.	4c\	-jus	.	2r	.	.	.	.	2r	.	2A-\	.	.	.
4G\	.	4G\	ex	.	4A-\	ex	.	4c\	ex	.	.	.	.	.	.	.	.	.	.	.	.
=114	=114	=114	=114	=114	=114	=114	=114	=114	=114	=114	=114	=114	=114	=114	=114	=114	=114	=114	=114	=114	=114
4.F\	.	4.F\	om-	.	4.A-\	om-	.	4.d-X\	om-	.	1r	.	4.f\	4.d-X\	.	1r	.	4.A-\	.	4.d-X\	.
8F\	.	8F\	-ni-	.	8A-\	-ni-	.	8d-\	-ni-	.	.	.	8f\	8d-\	.	.	.	8A-\	.	8d-\	.
4F\	.	4F\	-bus	.	4A-\	-bus	.	4d-\	-bus	.	.	.	4f\	4d-\	.	.	.	4A-\	.	4d-\	.
4r	.	4F\	i-	.	4A-\	i-	.	4d-\	i-	.	.	.	4r	4r	.	.	.	4r	.	4r	.
=115	=115	=115	=115	=115	=115	=115	=115	=115	=115	=115	=115	=115	=115	=115	=115	=115	=115	=115	=115	=115	=115
1r	.	2F\^	-ni-	.	4A-\	-ni-	.	4d-X\	-ni-	.	1r	.	1r	1r	.	1r	.	1r	.	1r	.
.	.	.	.	.	2d-X\	-qui-	.	2f\	-qui-	.	.	.	.	.	.	.	.	.	.	.	.
.	.	2F\	-qui-	.	.	.	.	.	.	.	.	.	.	.	.	.	.	.	.	.	.
.	.	.	.	.	8e-\L	.	.	8g\L	.	.	.	.	.	.	.	.	.	.	.	.	.
.	.	.	.	.	8f\J	.	.	8a-\J	.	.	.	.	.	.	.	.	.	.	.	.	.
=116	=116	=116	=116	=116	=116	=116	=116	=116	=116	=116	=116	=116	=116	=116	=116	=116	=116	=116	=116	=116	=116
*	*	*	*	*	*	*	*	*	*	*	*	*	*	*	*	*^	*	*	*	*	*
2F\^<	.	2F\^	-ta-	.	2A-X/	-ta-	.	2Bn\^	-ta-	.	2r	.	2f/^	2dn\	.	4dd/^	4dd\	.	2A-X\^	.	2Bn\^	.
.	.	.	.	.	.	.	.	.	.	.	.	.	.	.	.	4r	4r	.	.	.	.	.
2F#X\^<	.	2F#X\^	-tes	.	2An/	-tes	.	2c\^	-tes	.	16C/LL	.	2e-/^	2e-\	.	4cc/^	4cc\	.	2An\^	.	2c\^	.
.	.	.	.	.	.	.	.	.	.	.	16C/	.	.	.	.	.	.	.	.	.	.	.
.	.	.	.	.	.	.	.	.	.	.	16C/	.	.	.	.	.	.	.	.	.	.	.
.	.	.	.	.	.	.	.	.	.	.	16C/JJ	.	.	.	.	.	.	.	.	.	.	.
.	.	.	.	.	.	.	.	.	.	.	8C/	.	.	.	.	4r	4r	.	.	.	.	.
.	.	.	.	.	.	.	.	.	.	.	8r	.	.	.	.	.	.	.	.	.	.	.
*	*	*	*	*	*	*	*	*	*	*	*	*	*	*	*	*v	*v	*	*	*	*	*
=117	=117	=117	=117	=117	=117	=117	=117	=117	=117	=117	=117	=117	=117	=117	=117	=117	=117	=117	=117	=117	=117
!	!	!	!	!	!	!	!	!	!	!	!	!	!	!	!	!	!	!	!	!	!LO:DY:a
1G\	.	[>1G/	E-	.	[1c\	E-	.	(>1e-\	E-	.	16GG/LL	.	1g/	1e-/	.	4g/	.	1c\	.	1e-\	f
.	.	.	.	.	.	.	.	.	.	.	16GG/	.	.	.	.	.	.	.	.	.	.
.	.	.	.	.	.	.	.	.	.	.	16GG/	.	.	.	.	.	.	.	.	.	.
.	.	.	.	.	.	.	.	.	.	.	16GG/	.	.	.	.	.	.	.	.	.	.
.	.	.	.	.	.	.	.	.	.	.	16GG/	.	.	.	.	8.g/L	.	.	.	.	.
.	.	.	.	.	.	.	.	.	.	.	16GG/	.	.	.	.	.	.	.	.	.	.
.	.	.	.	.	.	.	.	.	.	.	16GG/	.	.	.	.	.	.	.	.	.	.
.	.	.	.	.	.	.	.	.	.	.	16GG/	.	.	.	.	16g/Jk	.	.	.	.	.
.	.	.	.	.	.	.	.	.	.	.	16GG/	.	.	.	.	4g/	.	.	.	.	.
.	.	.	.	.	.	.	.	.	.	.	16GG/	.	.	.	.	.	.	.	.	.	.
.	.	.	.	.	.	.	.	.	.	.	16GG/	.	.	.	.	.	.	.	.	.	.
.	.	.	.	.	.	.	.	.	.	.	16GG/	.	.	.	.	.	.	.	.	.	.
.	.	.	.	.	.	.	.	.	.	.	16GG/	.	.	.	.	4r	.	.	.	.	.
.	.	.	.	.	.	.	.	.	.	.	16GG/	.	.	.	.	.	.	.	.	.	.
.	.	.	.	.	.	.	.	.	.	.	16GG/	.	.	.	.	.	.	.	.	.	.
.	.	.	.	.	.	.	.	.	.	.	16GG/JJ	.	.	.	.	.	.	.	.	.	.
=118	=118	=118	=118	=118	=118	=118	=118	=118	=118	=118	=118	=118	=118	=118	=118	=118	=118	=118	=118	=118	=118
1GG/	.	1GG/ 1G/]	.	.	2c\]	.	.	1d\)	.	.	16GG/LL	.	1g/	1gyy	.	4r	.	2c\	.	1d\	.
.	.	.	.	.	.	.	.	.	.	.	16GG/	.	.	.	.	.	.	.	.	.	.
.	.	.	.	.	.	.	.	.	.	.	16GG/	.	.	.	.	.	.	.	.	.	.
.	.	.	.	.	.	.	.	.	.	.	16GG/	.	.	.	.	.	.	.	.	.	.
.	.	.	.	.	.	.	.	.	.	.	16GG/	.	.	.	.	8.g/L	.	.	.	.	.
.	.	.	.	.	.	.	.	.	.	.	16GG/	.	.	.	.	.	.	.	.	.	.
.	.	.	.	.	.	.	.	.	.	.	16GG/	.	.	.	.	.	.	.	.	.	.
.	.	.	.	.	.	.	.	.	.	.	16GG/	.	.	.	.	16g/Jk	.	.	.	.	.
.	.	.	.	.	2Bn\	.	.	.	.	.	16GG/	.	.	.	.	4g/	.	2Bn\	.	.	.
.	.	.	.	.	.	.	.	.	.	.	16GG/	.	.	.	.	.	.	.	.	.	.
.	.	.	.	.	.	.	.	.	.	.	16GG/	.	.	.	.	.	.	.	.	.	.
.	.	.	.	.	.	.	.	.	.	.	16GG/	.	.	.	.	.	.	.	.	.	.
.	.	.	.	.	.	.	.	.	.	.	16GG/	.	.	.	.	4g/	.	.	.	.	.
.	.	.	.	.	.	.	.	.	.	.	16GG/	.	.	.	.	.	.	.	.	.	.
.	.	.	.	.	.	.	.	.	.	.	16GG/	.	.	.	.	.	.	.	.	.	.
.	.	.	.	.	.	.	.	.	.	.	16GG/JJ	.	.	.	.	.	.	.	.	.	.
=119	=119	=119	=119	=119	=119	=119	=119	=119	=119	=119	=119	=119	=119	=119	=119	=119	=119	=119	=119	=119	=119
2C/	.	2C/	-jus.	.	2c\	-jus.	.	2c\	-jus.	.	4C/	.	4g\	4e-\	.	2g/	.	2c\	.	2c\	.
.	.	.	.	.	.	.	.	.	.	.	4r	.	8.g\L	8.g\L	.	.	.	.	.	.	.
.	.	.	.	.	.	.	.	.	.	.	.	.	16g\Jk	16g\Jk	.	.	.	.	.	.	.
2r	.	2r	.	.	2r	.	.	2r	.	.	2r	.	4g\	4g\	.	2r	.	2r	.	2r	.
.	.	.	.	.	.	.	.	.	.	.	.	.	4g\	4g\	.	.	.	.	.	.	.
=120	=120	=120	=120	=120	=120	=120	=120	=120	=120	=120	=120	=120	=120	=120	=120	=120	=120	=120	=120	=120	=120
!LO:TX:a:t=P:problem=diminuendolike accent	!	!	!	!	!	!	!	!	!	!	!	!	!LO:TX:a:t=P:problem=diminuendolike accent	!	!	!	!	!LO:TX:a:t=P:problem=diminuendolike accent	!	!LO:TX:a:t=P:problem=diminuendolike accent	!
1GG\^	.	1r	.	.	1r	.	.	1r	.	.	16GG/LL	.	1g/^	1f/	.	4g/	.	1Bn\^	.	1d\^	.
.	.	.	.	.	.	.	.	.	.	.	16GG/	.	.	.	.	.	.	.	.	.	.
.	.	.	.	.	.	.	.	.	.	.	16GG/	.	.	.	.	.	.	.	.	.	.
.	.	.	.	.	.	.	.	.	.	.	16GG/JJ	.	.	.	.	.	.	.	.	.	.
.	.	.	.	.	.	.	.	.	.	.	8GG/	.	.	.	.	4r	.	.	.	.	.
.	.	.	.	.	.	.	.	.	.	.	8r	.	.	.	.	.	.	.	.	.	.
.	.	.	.	.	.	.	.	.	.	.	2r	.	.	.	.	2r	.	.	.	.	.
=121	=121	=121	=121	=121	=121	=121	=121	=121	=121	=121	=121	=121	=121	=121	=121	=121	=121	=121	=121	=121	=121
!	!	!	!	!	!	!	!	!	!	!	!LO:TX:a:t=P:problem=ten ptaszek to chyba p	!LO:DY:a	!	!	!	!	!	!	!	!	!
2C/	.	1r	.	.	1r	.	.	1r	.	.	4C/	p	4g\	4e-\	.	1r	.	2c\	.	2c\	.
.	.	.	.	.	.	.	.	.	.	.	4r	.	8.g\L	8.g\L	.	.	.	.	.	.	.
.	.	.	.	.	.	.	.	.	.	.	.	.	16g\Jk	16g\Jk	.	.	.	.	.	.	.
2r	.	.	.	.	.	.	.	.	.	.	2r	.	4g\	4g\	.	.	.	2r	.	2r	.
.	.	.	.	.	.	.	.	.	.	.	.	.	4g\	4g\	.	.	.	.	.	.	.
=122	=122	=122	=122	=122	=122	=122	=122	=122	=122	=122	=122	=122	=122	=122	=122	=122	=122	=122	=122	=122	=122
!LO:TX:a:t=P:problem=diminuendolike accent	!	!	!	!	!	!	!	!	!	!	!	!	!	!	!	!	!	!LO:TX:a:t=P:problem=diminuendolike accent	!	!LO:TX:a:t=P:problem=diminuendolike accent	!
1GG\^	.	1r	.	.	1r	.	.	1r	.	.	16GG/LL	.	1g/^	1f/	.	4g/	.	1Bn\^	.	1d\^	.
.	.	.	.	.	.	.	.	.	.	.	16GG/	.	.	.	.	.	.	.	.	.	.
.	.	.	.	.	.	.	.	.	.	.	16GG/	.	.	.	.	.	.	.	.	.	.
.	.	.	.	.	.	.	.	.	.	.	16GG/JJ	.	.	.	.	.	.	.	.	.	.
.	.	.	.	.	.	.	.	.	.	.	8GG/	.	.	.	.	4r	.	.	.	.	.
.	.	.	.	.	.	.	.	.	.	.	8r	.	.	.	.	.	.	.	.	.	.
!	!	!	!	!	!	!	!	!	!	!	!	!LO:HP:a	!	!	!	!	!	!	!	!	!
.	.	.	.	.	.	.	.	.	.	.	2r	>	.	.	.	2r	.	.	.	.	.
=123	=123	=123	=123	=123	=123	=123	=123	=123	=123	=123	=123	=123	=123	=123	=123	=123	=123	=123	=123	=123	=123
4C/	.	1r	.	.	1r	.	.	1r	.	.	16C/LL	.	2g\	2e-\	.	1r	.	2c\	.	2c\	.
.	.	.	.	.	.	.	.	.	.	.	16C/	.	.	.	.	.	.	.	.	.	.
.	.	.	.	.	.	.	.	.	.	.	16C/	.	.	.	.	.	.	.	.	.	.
.	.	.	.	.	.	.	.	.	.	.	16C/	.	.	.	.	.	.	.	.	.	.
!	!LO:DY:a	!	!	!	!	!	!	!	!	!	!	!	!	!	!	!	!	!	!	!	!
8.C/L	p	.	.	.	.	.	.	.	.	.	16C/	.	.	.	.	.	.	.	.	.	.
.	.	.	.	.	.	.	.	.	.	.	16C/	.	.	.	.	.	.	.	.	.	.
.	.	.	.	.	.	.	.	.	.	.	16C/	.	.	.	.	.	.	.	.	.	.
16C/Jk	.	.	.	.	.	.	.	.	.	.	16C/	.	.	.	.	.	.	.	.	.	.
4C/	.	.	.	.	.	.	.	.	.	.	16C/	.	2r	2r	.	.	.	2r	.	4r	.
.	.	.	.	.	.	.	.	.	.	.	16C/	.	.	.	.	.	.	.	.	.	.
.	.	.	.	.	.	.	.	.	.	.	16C/	.	.	.	.	.	.	.	.	.	.
.	.	.	.	.	.	.	.	.	.	.	16C/	.	.	.	.	.	.	.	.	.	.
!	!LO:HP:a	!	!	!	!	!	!	!	!	!	!	!	!	!	!	!	!	!	!	!	!LO:DY:a
4C/	>	.	.	.	.	.	.	.	.	.	16C/	.	.	.	.	.	.	.	.	4e-\	p
.	.	.	.	.	.	.	.	.	.	.	16C/	.	.	.	.	.	.	.	.	.	.
.	.	.	.	.	.	.	.	.	.	.	16C/	.	.	.	.	.	.	.	.	.	.
.	.	.	.	.	.	.	.	.	.	.	16C/JJ	.	.	.	.	.	.	.	.	.	.
=124	=124	=124	=124	=124	=124	=124	=124	=124	=124	=124	=124	=124	=124	=124	=124	=124	=124	=124	=124	=124	=124
*	*	*	*	*	*	*	*	*	*	*	*	*^	*	*	*	*	*	*	*	*	*
!	!	!	!	!	!	!	!	!	!	!	!	!	!	!	!	!LO:DY:a	!LO:TX:B:t=pia&colon;	!	!	!	!	!
4C/	.	1r	.	.	1r	.	.	1r	.	.	16C/LL	.	.	1g/	1e-/	pp	4c/	.	4C/	.	2.g\	.
.	.	.	.	.	.	.	.	.	.	.	16C/	.	.	.	.	.	.	.	.	.	.	.
.	.	.	.	.	.	.	.	.	.	.	16C/	.	.	.	.	.	.	.	.	.	.	.
.	.	.	.	.	.	.	.	.	.	.	16C/	.	.	.	.	.	.	.	.	.	.	.
4r	.	.	.	.	.	.	.	.	.	.	16C/	.	.	.	.	.	4r	.	4r	.	.	.
.	.	.	.	.	.	.	.	.	.	.	16C/	.	.	.	.	.	.	.	.	.	.	.
.	.	.	.	.	.	.	.	.	.	.	16C/	.	.	.	.	.	.	.	.	.	.	.
.	.	.	.	.	.	.	.	.	.	.	16C/	.	.	.	.	.	.	.	.	.	.	.
!	!	!	!	!	!	!	!	!	!	!	!	!	!LO:DY:a	!	!	!	!	!	!	!	!	!
4C/	.	.	.	.	.	.	.	.	.	.	16C/	.	ppp	.	.	.	4c/	.	4C/	.	.	.
.	.	.	.	.	.	.	.	.	.	.	16C/	.	.	.	.	.	.	.	.	.	.	.
.	.	.	.	.	.	.	.	.	.	.	16C/	.	.	.	.	.	.	.	.	.	.	.
.	.	.	.	.	.	.	.	.	.	.	16C/	.	.	.	.	.	.	.	.	.	.	.
4r	.	.	.	.	.	.	.	.	.	.	16C/	.	.	.	.	.	4r	.	4r	.	4e-\	.
.	.	.	.	.	.	.	.	.	.	.	16C/	.	.	.	.	.	.	.	.	.	.	.
.	.	.	.	.	.	.	.	.	.	.	16C/	.	.	.	.	.	.	.	.	.	.	.
.	.	.	.	.	.	.	.	.	.	.	16C/JJ	]	.	.	.	.	.	.	.	.	.	.
*	*	*	*	*	*	*	*	*	*	*	*	*v	*v	*	*	*	*	*	*	*	*	*
=125	=125	=125	=125	=125	=125	=125	=125	=125	=125	=125	=125	=125	=125	=125	=125	=125	=125	=125	=125	=125	=125
2.C/	]	1r	.	.	1r	.	.	1r	.	.	(<16C/LL	.	2.g\	2.e-\	.	2.c/	.	2.C/	.	2.c\	.
.	.	.	.	.	.	.	.	.	.	.	16C/	.	.	.	.	.	.	.	.	.	.
.	.	.	.	.	.	.	.	.	.	.	16C/	.	.	.	.	.	.	.	.	.	.
.	.	.	.	.	.	.	.	.	.	.	16C/	.	.	.	.	.	.	.	.	.	.
.	.	.	.	.	.	.	.	.	.	.	16C/	.	.	.	.	.	.	.	.	.	.
.	.	.	.	.	.	.	.	.	.	.	16C/	.	.	.	.	.	.	.	.	.	.
.	.	.	.	.	.	.	.	.	.	.	16C/	.	.	.	.	.	.	.	.	.	.
.	.	.	.	.	.	.	.	.	.	.	16C/JJ	.	.	.	.	.	.	.	.	.	.
.	.	.	.	.	.	.	.	.	.	.	4C/)	.	.	.	.	.	.	.	.	.	.
4r	.	.	.	.	.	.	.	.	.	.	4r	.	4r	4r	.	4r	.	4r	.	4r	.
*	*	*	*	*	*	*	*	*	*	*	*	*	*v	*v	*	*	*	*	*	*	*
==	==	==	==	==	==	==	==	==	==	==	==	==	==	==	==	==	==	==	==	==
*-	*-	*-	*-	*-	*-	*-	*-	*-	*-	*-	*-	*-	*-	*-	*-	*-	*-	*-	*-	*-
!!!system-decoration: [(s1,s2)]s3,s4,s5[(s6,s7,s8)]s9
!!!RDF**kern: > = above
!!!RDF**kern: < = below
!!!ENC: Marta Lawrence
!!!END: 2020-03-23
!!!ENC: Tomasz Grochalski
!!!END: 2020-02-18
!!!YEC: Copyright 2022 Narodowy Instytut Fryderyka Chopina (https://polishscores.org)
!!!YEM: License CC-BY-4.0 (https://creativecommons.org/licenses/by/4.0)
